~samples.putPairs([
    "impulse_responses", Dictionary.newFrom([
        "general", Dictionary.newFrom([
            "spring_reverb", Dictionary.newFrom([
                "path", PathName(~root_sample_dir ++ "samples/Impulse_Responses/131034__0e0__roland-re-301-spring-reverb-impulse.wav").fullPath,
                "buffer", Buffer.read(s, PathName(~root_sample_dir ++ "samples/Impulse_Responses/131034__0e0__roland-re-301-spring-reverb-impulse.wav").fullPath),
            ]),
            "wine_tank", Dictionary.newFrom([
                "path", PathName(~root_sample_dir ++ "samples/Impulse_Responses/560377__manysounds__1000-liter-wine-tank-plate-spring-impulse.wav").fullPath,
                "buffer", Buffer.read(s, PathName(~root_sample_dir ++ "samples/Impulse_Responses/560377__manysounds__1000-liter-wine-tank-plate-spring-impulse.wav").fullPath),
            ]),
            "fishbowl", Dictionary.newFrom([
                "path", PathName(~root_sample_dir ++ "samples/Impulse_Responses/581339__fractanimal__dekker_fractanimal_impulse_response_large_glass_fishbowl_helmet.wav").fullPath,
                "buffer", Buffer.read(s, PathName(~root_sample_dir ++ "samples/Impulse_Responses/581339__fractanimal__dekker_fractanimal_impulse_response_large_glass_fishbowl_helmet.wav").fullPath),
            ]),
        ]),
        "korg", Dictionary.newFrom([
            "arena", Dictionary.newFrom([
                "path", PathName(~root_sample_dir ++ "samples/Impulse_Responses/8103__jesterdyne__korg-d888-reverbs/129408__jesterdyne__korg-d888-arena.wav").fullPath,
                "buffer", Buffer.read(s, PathName(~root_sample_dir ++ "samples/Impulse_Responses/8103__jesterdyne__korg-d888-reverbs/129408__jesterdyne__korg-d888-arena.wav").fullPath),
            ]),
            "hall", Dictionary.newFrom([
                "path", PathName(~root_sample_dir ++ "samples/Impulse_Responses/8103__jesterdyne__korg-d888-reverbs/129409__jesterdyne__korg-d888-hall.wav").fullPath,
                "buffer", Buffer.read(s, PathName(~root_sample_dir ++ "samples/Impulse_Responses/8103__jesterdyne__korg-d888-reverbs/129409__jesterdyne__korg-d888-hall.wav").fullPath),
            ]),
            "garage", Dictionary.newFrom([
                "path", PathName(~root_sample_dir ++ "samples/Impulse_Responses/8103__jesterdyne__korg-d888-reverbs/129410__jesterdyne__korg-d888-garage.wav").fullPath,
                "buffer", Buffer.read(s, PathName(~root_sample_dir ++ "samples/Impulse_Responses/8103__jesterdyne__korg-d888-reverbs/129410__jesterdyne__korg-d888-garage.wav").fullPath),
            ]),
            "cathedral", Dictionary.newFrom([
                "path", PathName(~root_sample_dir ++ "samples/Impulse_Responses/8103__jesterdyne__korg-d888-reverbs/129412__jesterdyne__korg-d888-cathetral.wav").fullPath,
                "buffer", Buffer.read(s, PathName(~root_sample_dir ++ "samples/Impulse_Responses/8103__jesterdyne__korg-d888-reverbs/129412__jesterdyne__korg-d888-cathetral.wav").fullPath),
            ]),
            "studio", Dictionary.newFrom([
                "path", PathName(~root_sample_dir ++ "samples/Impulse_Responses/8103__jesterdyne__korg-d888-reverbs/129413__jesterdyne__korg-d888-studio.wav").fullPath,
                "buffer", Buffer.read(s, PathName(~root_sample_dir ++ "samples/Impulse_Responses/8103__jesterdyne__korg-d888-reverbs/129413__jesterdyne__korg-d888-studio.wav").fullPath),
            ]),
            "room", Dictionary.newFrom([
                "path", PathName(~root_sample_dir ++ "samples/Impulse_Responses/8103__jesterdyne__korg-d888-reverbs/129414__jesterdyne__korg-d888-room.wav").fullPath,
                "buffer", Buffer.read(s, PathName(~root_sample_dir ++ "samples/Impulse_Responses/8103__jesterdyne__korg-d888-reverbs/129414__jesterdyne__korg-d888-room.wav").fullPath),
            ])
        ]),
        "prodepha", Dictionary.newFrom([
            "tunnel-03", Dictionary.newFrom([
                "path", PathName(~root_sample_dir ++ "samples/Impulse_Responses/19585__prodepha__impulse-responses/345343__prodepha__doerener-tunnel-03.wav").fullPath,
                "buffer", Buffer.read(s, PathName(~root_sample_dir ++ "samples/Impulse_Responses/19585__prodepha__impulse-responses/345343__prodepha__doerener-tunnel-03.wav").fullPath),
            ]),
            "tunnel-02", Dictionary.newFrom([
                "path", PathName(~root_sample_dir ++ "samples/Impulse_Responses/19585__prodepha__impulse-responses/345344__prodepha__doerener-tunnel-02.wav").fullPath,
                "buffer", Buffer.read(s, PathName(~root_sample_dir ++ "samples/Impulse_Responses/19585__prodepha__impulse-responses/345344__prodepha__doerener-tunnel-02.wav").fullPath),
            ]),
            "tunnel-01", Dictionary.newFrom([
                "path", PathName(~root_sample_dir ++ "samples/Impulse_Responses/19585__prodepha__impulse-responses/345345__prodepha__doerener-tunnel-01.wav").fullPath,
                "buffer", Buffer.read(s, PathName(~root_sample_dir ++ "samples/Impulse_Responses/19585__prodepha__impulse-responses/345345__prodepha__doerener-tunnel-01.wav").fullPath),
            ]),
        ]),
        "alesis_microverb", Dictionary.newFrom([
            "large-2", Dictionary.newFrom([
                "path", PathName(~root_sample_dir ++ "samples/Impulse_Responses/23336__joeribraams__1986-alesis-microverb-digital-reverb-impulse-response-pack/414174__joeribraams__alesis-microverb-ir-large-2.wav").fullPath,
                "buffer", Buffer.read(s, PathName(~root_sample_dir ++ "samples/Impulse_Responses/23336__joeribraams__1986-alesis-microverb-digital-reverb-impulse-response-pack/414174__joeribraams__alesis-microverb-ir-large-2.wav").fullPath),
            ]),
            "large-1", Dictionary.newFrom([
                "path", PathName(~root_sample_dir ++ "samples/Impulse_Responses/23336__joeribraams__1986-alesis-microverb-digital-reverb-impulse-response-pack/414175__joeribraams__alesis-microverb-ir-large-1.wav").fullPath,
                "buffer", Buffer.read(s, PathName(~root_sample_dir ++ "samples/Impulse_Responses/23336__joeribraams__1986-alesis-microverb-digital-reverb-impulse-response-pack/414175__joeribraams__alesis-microverb-ir-large-1.wav").fullPath),
            ]),
            "gate-2", Dictionary.newFrom([
                "path", PathName(~root_sample_dir ++ "samples/Impulse_Responses/23336__joeribraams__1986-alesis-microverb-digital-reverb-impulse-response-pack/414176__joeribraams__alesis-microverb-ir-gate-2.wav").fullPath,
                "buffer", Buffer.read(s, PathName(~root_sample_dir ++ "samples/Impulse_Responses/23336__joeribraams__1986-alesis-microverb-digital-reverb-impulse-response-pack/414176__joeribraams__alesis-microverb-ir-gate-2.wav").fullPath),
            ]),
            "gate-1", Dictionary.newFrom([
                "path", PathName(~root_sample_dir ++ "samples/Impulse_Responses/23336__joeribraams__1986-alesis-microverb-digital-reverb-impulse-response-pack/414177__joeribraams__alesis-microverb-ir-gate-1.wav").fullPath,
                "buffer", Buffer.read(s, PathName(~root_sample_dir ++ "samples/Impulse_Responses/23336__joeribraams__1986-alesis-microverb-digital-reverb-impulse-response-pack/414177__joeribraams__alesis-microverb-ir-gate-1.wav").fullPath),
            ]),
            "large-6", Dictionary.newFrom([
                "path", PathName(~root_sample_dir ++ "samples/Impulse_Responses/23336__joeribraams__1986-alesis-microverb-digital-reverb-impulse-response-pack/414178__joeribraams__alesis-microverb-ir-large-6.wav").fullPath,
                "buffer", Buffer.read(s, PathName(~root_sample_dir ++ "samples/Impulse_Responses/23336__joeribraams__1986-alesis-microverb-digital-reverb-impulse-response-pack/414178__joeribraams__alesis-microverb-ir-large-6.wav").fullPath),
            ]),
            "large-5", Dictionary.newFrom([
                "path", PathName(~root_sample_dir ++ "samples/Impulse_Responses/23336__joeribraams__1986-alesis-microverb-digital-reverb-impulse-response-pack/414179__joeribraams__alesis-microverb-ir-large-5.wav").fullPath,
                "buffer", Buffer.read(s, PathName(~root_sample_dir ++ "samples/Impulse_Responses/23336__joeribraams__1986-alesis-microverb-digital-reverb-impulse-response-pack/414179__joeribraams__alesis-microverb-ir-large-5.wav").fullPath),
            ]),
            "large-4", Dictionary.newFrom([
                "path", PathName(~root_sample_dir ++ "samples/Impulse_Responses/23336__joeribraams__1986-alesis-microverb-digital-reverb-impulse-response-pack/414180__joeribraams__alesis-microverb-ir-large-4.wav").fullPath,
                "buffer", Buffer.read(s, PathName(~root_sample_dir ++ "samples/Impulse_Responses/23336__joeribraams__1986-alesis-microverb-digital-reverb-impulse-response-pack/414180__joeribraams__alesis-microverb-ir-large-4.wav").fullPath),
            ]),
            "large-3", Dictionary.newFrom([
                "path", PathName(~root_sample_dir ++ "samples/Impulse_Responses/23336__joeribraams__1986-alesis-microverb-digital-reverb-impulse-response-pack/414181__joeribraams__alesis-microverb-ir-large-3.wav").fullPath,
                "buffer", Buffer.read(s, PathName(~root_sample_dir ++ "samples/Impulse_Responses/23336__joeribraams__1986-alesis-microverb-digital-reverb-impulse-response-pack/414181__joeribraams__alesis-microverb-ir-large-3.wav").fullPath),
            ]),
            "reverse", Dictionary.newFrom([
                "path", PathName(~root_sample_dir ++ "samples/Impulse_Responses/23336__joeribraams__1986-alesis-microverb-digital-reverb-impulse-response-pack/414182__joeribraams__alesis-microverb-ir-reverse.wav").fullPath,
                "buffer", Buffer.read(s, PathName(~root_sample_dir ++ "samples/Impulse_Responses/23336__joeribraams__1986-alesis-microverb-digital-reverb-impulse-response-pack/414182__joeribraams__alesis-microverb-ir-reverse.wav").fullPath),
            ]),
            "large-7", Dictionary.newFrom([
                "path", PathName(~root_sample_dir ++ "samples/Impulse_Responses/23336__joeribraams__1986-alesis-microverb-digital-reverb-impulse-response-pack/414183__joeribraams__alesis-microverb-ir-large-7.wav").fullPath,
                "buffer", Buffer.read(s, PathName(~root_sample_dir ++ "samples/Impulse_Responses/23336__joeribraams__1986-alesis-microverb-digital-reverb-impulse-response-pack/414183__joeribraams__alesis-microverb-ir-large-7.wav").fullPath),
            ]),
            "small-2", Dictionary.newFrom([
                "path", PathName(~root_sample_dir ++ "samples/Impulse_Responses/23336__joeribraams__1986-alesis-microverb-digital-reverb-impulse-response-pack/414184__joeribraams__alesis-microverb-ir-small-2.wav").fullPath,
                "buffer", Buffer.read(s, PathName(~root_sample_dir ++ "samples/Impulse_Responses/23336__joeribraams__1986-alesis-microverb-digital-reverb-impulse-response-pack/414184__joeribraams__alesis-microverb-ir-small-2.wav").fullPath),
            ]),
            "small-1", Dictionary.newFrom([
                "path", PathName(~root_sample_dir ++ "samples/Impulse_Responses/23336__joeribraams__1986-alesis-microverb-digital-reverb-impulse-response-pack/414185__joeribraams__alesis-microverb-ir-small-1.wav").fullPath,
                "buffer", Buffer.read(s, PathName(~root_sample_dir ++ "samples/Impulse_Responses/23336__joeribraams__1986-alesis-microverb-digital-reverb-impulse-response-pack/414185__joeribraams__alesis-microverb-ir-small-1.wav").fullPath),
            ]),
            "small-3", Dictionary.newFrom([
                "path", PathName(~root_sample_dir ++ "samples/Impulse_Responses/23336__joeribraams__1986-alesis-microverb-digital-reverb-impulse-response-pack/414186__joeribraams__alesis-microverb-ir-small-3.wav").fullPath,
                "buffer", Buffer.read(s, PathName(~root_sample_dir ++ "samples/Impulse_Responses/23336__joeribraams__1986-alesis-microverb-digital-reverb-impulse-response-pack/414186__joeribraams__alesis-microverb-ir-small-3.wav").fullPath),
            ]),
            "small-5", Dictionary.newFrom([
                "path", PathName(~root_sample_dir ++ "samples/Impulse_Responses/23336__joeribraams__1986-alesis-microverb-digital-reverb-impulse-response-pack/414187__joeribraams__alesis-microverb-ir-small-5.wav").fullPath,
                "buffer", Buffer.read(s, PathName(~root_sample_dir ++ "samples/Impulse_Responses/23336__joeribraams__1986-alesis-microverb-digital-reverb-impulse-response-pack/414187__joeribraams__alesis-microverb-ir-small-5.wav").fullPath),
            ]),
            "small-6", Dictionary.newFrom([
                "path", PathName(~root_sample_dir ++ "samples/Impulse_Responses/23336__joeribraams__1986-alesis-microverb-digital-reverb-impulse-response-pack/414188__joeribraams__alesis-microverb-ir-small-6.wav").fullPath,
                "buffer", Buffer.read(s, PathName(~root_sample_dir ++ "samples/Impulse_Responses/23336__joeribraams__1986-alesis-microverb-digital-reverb-impulse-response-pack/414188__joeribraams__alesis-microverb-ir-small-6.wav").fullPath),
            ]),
            "small-4", Dictionary.newFrom([
                "path", PathName(~root_sample_dir ++ "samples/Impulse_Responses/23336__joeribraams__1986-alesis-microverb-digital-reverb-impulse-response-pack/414189__joeribraams__alesis-microverb-ir-small-4.wav").fullPath,
                "buffer", Buffer.read(s, PathName(~root_sample_dir ++ "samples/Impulse_Responses/23336__joeribraams__1986-alesis-microverb-digital-reverb-impulse-response-pack/414189__joeribraams__alesis-microverb-ir-small-4.wav").fullPath),
            ])
        ]),
        "tim_verberne", Dictionary.newFrom([
            "cave_01", Dictionary.newFrom([
                "path", PathName(~root_sample_dir ++ "samples/Impulse_Responses/30310__tim_verberne__impulse-responses/537624__tim_verberne__ir_st_cave_01.wav").fullPath,
                "buffer", Buffer.read(s, PathName(~root_sample_dir ++ "samples/Impulse_Responses/30310__tim_verberne__impulse-responses/537624__tim_verberne__ir_st_cave_01.wav").fullPath),
            ]),
            "church_02", Dictionary.newFrom([
                "path", PathName(~root_sample_dir ++ "samples/Impulse_Responses/30310__tim_verberne__impulse-responses/537628__tim_verberne__ir_st_church_02.wav").fullPath,
                "buffer", Buffer.read(s, PathName(~root_sample_dir ++ "samples/Impulse_Responses/30310__tim_verberne__impulse-responses/537628__tim_verberne__ir_st_church_02.wav").fullPath),
            ]),
            "church_01", Dictionary.newFrom([
                "path", PathName(~root_sample_dir ++ "samples/Impulse_Responses/30310__tim_verberne__impulse-responses/537629__tim_verberne__ir_st_church_01.wav").fullPath,
                "buffer", Buffer.read(s, PathName(~root_sample_dir ++ "samples/Impulse_Responses/30310__tim_verberne__impulse-responses/537629__tim_verberne__ir_st_church_01.wav").fullPath),
            ]),
            "cave_03", Dictionary.newFrom([
                "path", PathName(~root_sample_dir ++ "samples/Impulse_Responses/30310__tim_verberne__impulse-responses/537630__tim_verberne__ir_st_cave_03.wav").fullPath,
                "buffer", Buffer.read(s, PathName(~root_sample_dir ++ "samples/Impulse_Responses/30310__tim_verberne__impulse-responses/537630__tim_verberne__ir_st_cave_03.wav").fullPath),
            ]),
            "cave_02", Dictionary.newFrom([
                "path", PathName(~root_sample_dir ++ "samples/Impulse_Responses/30310__tim_verberne__impulse-responses/537631__tim_verberne__ir_st_cave_02.wav").fullPath,
                "buffer", Buffer.read(s, PathName(~root_sample_dir ++ "samples/Impulse_Responses/30310__tim_verberne__impulse-responses/537631__tim_verberne__ir_st_cave_02.wav").fullPath),
            ]),
            "church_03", Dictionary.newFrom([
                "path", PathName(~root_sample_dir ++ "samples/Impulse_Responses/30310__tim_verberne__impulse-responses/537633__tim_verberne__ir_st_church_03.wav").fullPath,
                "buffer", Buffer.read(s, PathName(~root_sample_dir ++ "samples/Impulse_Responses/30310__tim_verberne__impulse-responses/537633__tim_verberne__ir_st_church_03.wav").fullPath),
            ]),
            "tunnel_03", Dictionary.newFrom([
                "path", PathName(~root_sample_dir ++ "samples/Impulse_Responses/30310__tim_verberne__impulse-responses/537652__tim_verberne__ir_st_tunnel_03.wav").fullPath,
                "buffer", Buffer.read(s, PathName(~root_sample_dir ++ "samples/Impulse_Responses/30310__tim_verberne__impulse-responses/537652__tim_verberne__ir_st_tunnel_03.wav").fullPath),
            ]),
            "tunnel_01", Dictionary.newFrom([
                "path", PathName(~root_sample_dir ++ "samples/Impulse_Responses/30310__tim_verberne__impulse-responses/537654__tim_verberne__ir_st_tunnel_01.wav").fullPath,
                "buffer", Buffer.read(s, PathName(~root_sample_dir ++ "samples/Impulse_Responses/30310__tim_verberne__impulse-responses/537654__tim_verberne__ir_st_tunnel_01.wav").fullPath),
            ]),
            "dungeon_02", Dictionary.newFrom([
                "path", PathName(~root_sample_dir ++ "samples/Impulse_Responses/30310__tim_verberne__impulse-responses/537655__tim_verberne__ir_st_dungeon_02.wav").fullPath,
                "buffer", Buffer.read(s, PathName(~root_sample_dir ++ "samples/Impulse_Responses/30310__tim_verberne__impulse-responses/537655__tim_verberne__ir_st_dungeon_02.wav").fullPath),
            ]),
            "dungeon_01", Dictionary.newFrom([
                "path", PathName(~root_sample_dir ++ "samples/Impulse_Responses/30310__tim_verberne__impulse-responses/537656__tim_verberne__ir_st_dungeon_01.wav").fullPath,
                "buffer", Buffer.read(s, PathName(~root_sample_dir ++ "samples/Impulse_Responses/30310__tim_verberne__impulse-responses/537656__tim_verberne__ir_st_dungeon_01.wav").fullPath),
            ]),
            "dungeon_03", Dictionary.newFrom([
                "path", PathName(~root_sample_dir ++ "samples/Impulse_Responses/30310__tim_verberne__impulse-responses/537662__tim_verberne__ir_st_dungeon_03.wav").fullPath,
                "buffer", Buffer.read(s, PathName(~root_sample_dir ++ "samples/Impulse_Responses/30310__tim_verberne__impulse-responses/537662__tim_verberne__ir_st_dungeon_03.wav").fullPath),
            ]),
            "parking_garage_02", Dictionary.newFrom([
                "path", PathName(~root_sample_dir ++ "samples/Impulse_Responses/30310__tim_verberne__impulse-responses/537671__tim_verberne__ir_st_parking_garage_02.wav").fullPath,
                "buffer", Buffer.read(s, PathName(~root_sample_dir ++ "samples/Impulse_Responses/30310__tim_verberne__impulse-responses/537671__tim_verberne__ir_st_parking_garage_02.wav").fullPath),
            ]),
            "parking_garage_03", Dictionary.newFrom([
                "path", PathName(~root_sample_dir ++ "samples/Impulse_Responses/30310__tim_verberne__impulse-responses/537672__tim_verberne__ir_st_parking_garage_03.wav").fullPath,
                "buffer", Buffer.read(s, PathName(~root_sample_dir ++ "samples/Impulse_Responses/30310__tim_verberne__impulse-responses/537672__tim_verberne__ir_st_parking_garage_03.wav").fullPath),
            ]),
            "tunnel_02", Dictionary.newFrom([
                "path", PathName(~root_sample_dir ++ "samples/Impulse_Responses/30310__tim_verberne__impulse-responses/537673__tim_verberne__ir_st_tunnel_02.wav").fullPath,
                "buffer", Buffer.read(s, PathName(~root_sample_dir ++ "samples/Impulse_Responses/30310__tim_verberne__impulse-responses/537673__tim_verberne__ir_st_tunnel_02.wav").fullPath),
            ]),
            "parking_garage_01", Dictionary.newFrom([
                "path", PathName(~root_sample_dir ++ "samples/Impulse_Responses/30310__tim_verberne__impulse-responses/537675__tim_verberne__ir_st_parking_garage_01.wav").fullPath,
                "buffer", Buffer.read(s, PathName(~root_sample_dir ++ "samples/Impulse_Responses/30310__tim_verberne__impulse-responses/537675__tim_verberne__ir_st_parking_garage_01.wav").fullPath),
            ])
        ]),
        "uberproduktion", Dictionary.newFrom([
            "metal", Dictionary.newFrom([
                "path", PathName(~root_sample_dir ++ "samples/Impulse_Responses/31277__uberproduktion__impulse-responses-elemente/556859__uberproduktion__impulse-response-elemente-metal.wav").fullPath,
                "buffer", Buffer.read(s, PathName(~root_sample_dir ++ "samples/Impulse_Responses/31277__uberproduktion__impulse-responses-elemente/556859__uberproduktion__impulse-response-elemente-metal.wav").fullPath),
            ]),
            "ice", Dictionary.newFrom([
                "path", PathName(~root_sample_dir ++ "samples/Impulse_Responses/31277__uberproduktion__impulse-responses-elemente/556860__uberproduktion__impulse-response-elemente-ice.wav").fullPath,
                "buffer", Buffer.read(s, PathName(~root_sample_dir ++ "samples/Impulse_Responses/31277__uberproduktion__impulse-responses-elemente/556860__uberproduktion__impulse-response-elemente-ice.wav").fullPath),
            ]),
            "wind", Dictionary.newFrom([
                "path", PathName(~root_sample_dir ++ "samples/Impulse_Responses/31277__uberproduktion__impulse-responses-elemente/556862__uberproduktion__impulse-response-elemente-wind.wav").fullPath,
                "buffer", Buffer.read(s, PathName(~root_sample_dir ++ "samples/Impulse_Responses/31277__uberproduktion__impulse-responses-elemente/556862__uberproduktion__impulse-response-elemente-wind.wav").fullPath),
            ]),
            "water", Dictionary.newFrom([
                "path", PathName(~root_sample_dir ++ "samples/Impulse_Responses/31277__uberproduktion__impulse-responses-elemente/556863__uberproduktion__impulse-response-elemente-water.wav").fullPath,
                "buffer", Buffer.read(s, PathName(~root_sample_dir ++ "samples/Impulse_Responses/31277__uberproduktion__impulse-responses-elemente/556863__uberproduktion__impulse-response-elemente-water.wav").fullPath),
            ])
        ]),
        "nox_sound", Dictionary.newFrom([
            "church", Dictionary.newFrom([
                "path", PathName(~root_sample_dir ++ "samples/Impulse_Responses/31372__nox_sound__ir-impulse-response/585739__nox_sound__ir_church_small_5m_stereo.wav").fullPath,
                "buffer", Buffer.read(s, PathName(~root_sample_dir ++ "samples/Impulse_Responses/31372__nox_sound__ir-impulse-response/585739__nox_sound__ir_church_small_5m_stereo.wav").fullPath),
            ]),
            "chamber", Dictionary.newFrom([
                "path", PathName(~root_sample_dir ++ "samples/Impulse_Responses/31372__nox_sound__ir-impulse-response/585740__nox_sound__ir_chamber_stereo.wav").fullPath,
                "buffer", Buffer.read(s, PathName(~root_sample_dir ++ "samples/Impulse_Responses/31372__nox_sound__ir-impulse-response/585740__nox_sound__ir_chamber_stereo.wav").fullPath),
            ]),
            "toilet", Dictionary.newFrom([
                "path", PathName(~root_sample_dir ++ "samples/Impulse_Responses/31372__nox_sound__ir-impulse-response/585742__nox_sound__ir_toilet_stereo.wav").fullPath,
                "buffer", Buffer.read(s, PathName(~root_sample_dir ++ "samples/Impulse_Responses/31372__nox_sound__ir-impulse-response/585742__nox_sound__ir_toilet_stereo.wav").fullPath),
            ]),
            "cathedral", Dictionary.newFrom([
                "path", PathName(~root_sample_dir ++ "samples/Impulse_Responses/31372__nox_sound__ir-impulse-response/648945__nox_sound__ir_cathedral_5m_stereo.wav").fullPath,
                "buffer", Buffer.read(s, PathName(~root_sample_dir ++ "samples/Impulse_Responses/31372__nox_sound__ir-impulse-response/648945__nox_sound__ir_cathedral_5m_stereo.wav").fullPath),
            ]),
        ]),
        "sc", Dictionary.newFrom([
			"brownnoise_slow_0-5", Dictionary.newFrom([
                "path", PathName(~root_sample_dir ++ "samples/Impulse_Responses/sc/brownnoise/slow_vibrato/noise_0-5.wav").fullPath,
                "buffer", Buffer.read(s, PathName(~root_sample_dir ++ "samples/Impulse_Responses/sc/brownnoise/slow_vibrato/noise_0-5.wav").fullPath),
            ]),
			"brownnoise_slow_1", Dictionary.newFrom([
                "path", PathName(~root_sample_dir ++ "samples/Impulse_Responses/sc/brownnoise/slow_vibrato/noise_1.wav").fullPath,
                "buffer", Buffer.read(s, PathName(~root_sample_dir ++ "samples/Impulse_Responses/sc/brownnoise/slow_vibrato/noise_1.wav").fullPath),
            ]),
			"brownnoise_slow_1-5", Dictionary.newFrom([
                "path", PathName(~root_sample_dir ++ "samples/Impulse_Responses/sc/brownnoise/slow_vibrato/noise_1-5.wav").fullPath,
                "buffer", Buffer.read(s, PathName(~root_sample_dir ++ "samples/Impulse_Responses/sc/brownnoise/slow_vibrato/noise_1-5.wav").fullPath),
            ]),
			"brownnoise_slow_2", Dictionary.newFrom([
                "path", PathName(~root_sample_dir ++ "samples/Impulse_Responses/sc/brownnoise/slow_vibrato/noise_2.wav").fullPath,
                "buffer", Buffer.read(s, PathName(~root_sample_dir ++ "samples/Impulse_Responses/sc/brownnoise/slow_vibrato/noise_2.wav").fullPath),
            ]),
			"brownnoise_slow_2-5", Dictionary.newFrom([
                "path", PathName(~root_sample_dir ++ "samples/Impulse_Responses/sc/brownnoise/slow_vibrato/noise_2-5.wav").fullPath,
                "buffer", Buffer.read(s, PathName(~root_sample_dir ++ "samples/Impulse_Responses/sc/brownnoise/slow_vibrato/noise_2-5.wav").fullPath),
            ]),
			"brownnoise_slow_3", Dictionary.newFrom([
                "path", PathName(~root_sample_dir ++ "samples/Impulse_Responses/sc/brownnoise/slow_vibrato/noise_3.wav").fullPath,
                "buffer", Buffer.read(s, PathName(~root_sample_dir ++ "samples/Impulse_Responses/sc/brownnoise/slow_vibrato/noise_3.wav").fullPath),
            ]),
			"brownnoise_slow_3-5", Dictionary.newFrom([
                "path", PathName(~root_sample_dir ++ "samples/Impulse_Responses/sc/brownnoise/slow_vibrato/noise_3-5.wav").fullPath,
                "buffer", Buffer.read(s, PathName(~root_sample_dir ++ "samples/Impulse_Responses/sc/brownnoise/slow_vibrato/noise_3-5.wav").fullPath),
            ]),
			"brownnoise_slow_4", Dictionary.newFrom([
                "path", PathName(~root_sample_dir ++ "samples/Impulse_Responses/sc/brownnoise/slow_vibrato/noise_4.wav").fullPath,
                "buffer", Buffer.read(s, PathName(~root_sample_dir ++ "samples/Impulse_Responses/sc/brownnoise/slow_vibrato/noise_4.wav").fullPath),
            ]),
			"brownnoise_slow_4-5", Dictionary.newFrom([
                "path", PathName(~root_sample_dir ++ "samples/Impulse_Responses/sc/brownnoise/slow_vibrato/noise_4-5.wav").fullPath,
                "buffer", Buffer.read(s, PathName(~root_sample_dir ++ "samples/Impulse_Responses/sc/brownnoise/slow_vibrato/noise_4-5.wav").fullPath),
            ]),
			"brownnoise_slow_5", Dictionary.newFrom([
                "path", PathName(~root_sample_dir ++ "samples/Impulse_Responses/sc/brownnoise/slow_vibrato/noise_5.wav").fullPath,
                "buffer", Buffer.read(s, PathName(~root_sample_dir ++ "samples/Impulse_Responses/sc/brownnoise/slow_vibrato/noise_5.wav").fullPath),
            ]),
			"brownnoise_slow_5-5", Dictionary.newFrom([
                "path", PathName(~root_sample_dir ++ "samples/Impulse_Responses/sc/brownnoise/slow_vibrato/noise_5-5.wav").fullPath,
                "buffer", Buffer.read(s, PathName(~root_sample_dir ++ "samples/Impulse_Responses/sc/brownnoise/slow_vibrato/noise_5-5.wav").fullPath),
            ]),
			"brownnoise_slow_6", Dictionary.newFrom([
                "path", PathName(~root_sample_dir ++ "samples/Impulse_Responses/sc/brownnoise/slow_vibrato/noise_6.wav").fullPath,
                "buffer", Buffer.read(s, PathName(~root_sample_dir ++ "samples/Impulse_Responses/sc/brownnoise/slow_vibrato/noise_6.wav").fullPath),
            ]),
			"brownnoise_medium_0-5", Dictionary.newFrom([
                "path", PathName(~root_sample_dir ++ "samples/Impulse_Responses/sc/brownnoise/medium_vibrato/noise_0-5.wav").fullPath,
                "buffer", Buffer.read(s, PathName(~root_sample_dir ++ "samples/Impulse_Responses/sc/brownnoise/medium_vibrato/noise_0-5.wav").fullPath),
            ]),
			"brownnoise_medium_1", Dictionary.newFrom([
                "path", PathName(~root_sample_dir ++ "samples/Impulse_Responses/sc/brownnoise/medium_vibrato/noise_1.wav").fullPath,
                "buffer", Buffer.read(s, PathName(~root_sample_dir ++ "samples/Impulse_Responses/sc/brownnoise/medium_vibrato/noise_1.wav").fullPath),
            ]),
			"brownnoise_medium_1-5", Dictionary.newFrom([
                "path", PathName(~root_sample_dir ++ "samples/Impulse_Responses/sc/brownnoise/medium_vibrato/noise_1-5.wav").fullPath,
                "buffer", Buffer.read(s, PathName(~root_sample_dir ++ "samples/Impulse_Responses/sc/brownnoise/medium_vibrato/noise_1-5.wav").fullPath),
            ]),
			"brownnoise_medium_2", Dictionary.newFrom([
                "path", PathName(~root_sample_dir ++ "samples/Impulse_Responses/sc/brownnoise/medium_vibrato/noise_2.wav").fullPath,
                "buffer", Buffer.read(s, PathName(~root_sample_dir ++ "samples/Impulse_Responses/sc/brownnoise/medium_vibrato/noise_2.wav").fullPath),
            ]),
			"brownnoise_medium_2-5", Dictionary.newFrom([
                "path", PathName(~root_sample_dir ++ "samples/Impulse_Responses/sc/brownnoise/medium_vibrato/noise_2-5.wav").fullPath,
                "buffer", Buffer.read(s, PathName(~root_sample_dir ++ "samples/Impulse_Responses/sc/brownnoise/medium_vibrato/noise_2-5.wav").fullPath),
            ]),
			"brownnoise_medium_3", Dictionary.newFrom([
                "path", PathName(~root_sample_dir ++ "samples/Impulse_Responses/sc/brownnoise/medium_vibrato/noise_3.wav").fullPath,
                "buffer", Buffer.read(s, PathName(~root_sample_dir ++ "samples/Impulse_Responses/sc/brownnoise/medium_vibrato/noise_3.wav").fullPath),
            ]),
			"brownnoise_medium_3-5", Dictionary.newFrom([
                "path", PathName(~root_sample_dir ++ "samples/Impulse_Responses/sc/brownnoise/medium_vibrato/noise_3-5.wav").fullPath,
                "buffer", Buffer.read(s, PathName(~root_sample_dir ++ "samples/Impulse_Responses/sc/brownnoise/medium_vibrato/noise_3-5.wav").fullPath),
            ]),
			"brownnoise_medium_4", Dictionary.newFrom([
                "path", PathName(~root_sample_dir ++ "samples/Impulse_Responses/sc/brownnoise/medium_vibrato/noise_4.wav").fullPath,
                "buffer", Buffer.read(s, PathName(~root_sample_dir ++ "samples/Impulse_Responses/sc/brownnoise/medium_vibrato/noise_4.wav").fullPath),
            ]),
			"brownnoise_medium_4-5", Dictionary.newFrom([
                "path", PathName(~root_sample_dir ++ "samples/Impulse_Responses/sc/brownnoise/medium_vibrato/noise_4-5.wav").fullPath,
                "buffer", Buffer.read(s, PathName(~root_sample_dir ++ "samples/Impulse_Responses/sc/brownnoise/medium_vibrato/noise_4-5.wav").fullPath),
            ]),
			"brownnoise_medium_5", Dictionary.newFrom([
                "path", PathName(~root_sample_dir ++ "samples/Impulse_Responses/sc/brownnoise/medium_vibrato/noise_5.wav").fullPath,
                "buffer", Buffer.read(s, PathName(~root_sample_dir ++ "samples/Impulse_Responses/sc/brownnoise/medium_vibrato/noise_5.wav").fullPath),
            ]),
			"brownnoise_medium_5-5", Dictionary.newFrom([
                "path", PathName(~root_sample_dir ++ "samples/Impulse_Responses/sc/brownnoise/medium_vibrato/noise_5-5.wav").fullPath,
                "buffer", Buffer.read(s, PathName(~root_sample_dir ++ "samples/Impulse_Responses/sc/brownnoise/medium_vibrato/noise_5-5.wav").fullPath),
            ]),
			"brownnoise_medium_6", Dictionary.newFrom([
                "path", PathName(~root_sample_dir ++ "samples/Impulse_Responses/sc/brownnoise/medium_vibrato/noise_6.wav").fullPath,
                "buffer", Buffer.read(s, PathName(~root_sample_dir ++ "samples/Impulse_Responses/sc/brownnoise/medium_vibrato/noise_6.wav").fullPath),
            ]),
			"whitenoise_slow_0-5", Dictionary.newFrom([
                "path", PathName(~root_sample_dir ++ "samples/Impulse_Responses/sc/whitenoise/slow_vibrato/noise_0-5.wav").fullPath,
                "buffer", Buffer.read(s, PathName(~root_sample_dir ++ "samples/Impulse_Responses/sc/whitenoise/slow_vibrato/noise_0-5.wav").fullPath),
            ]),
			"whitenoise_slow_1", Dictionary.newFrom([
                "path", PathName(~root_sample_dir ++ "samples/Impulse_Responses/sc/whitenoise/slow_vibrato/noise_1.wav").fullPath,
                "buffer", Buffer.read(s, PathName(~root_sample_dir ++ "samples/Impulse_Responses/sc/whitenoise/slow_vibrato/noise_1.wav").fullPath),
            ]),
			"whitenoise_slow_1-5", Dictionary.newFrom([
                "path", PathName(~root_sample_dir ++ "samples/Impulse_Responses/sc/whitenoise/slow_vibrato/noise_1-5.wav").fullPath,
                "buffer", Buffer.read(s, PathName(~root_sample_dir ++ "samples/Impulse_Responses/sc/whitenoise/slow_vibrato/noise_1-5.wav").fullPath),
            ]),
			"whitenoise_slow_2", Dictionary.newFrom([
                "path", PathName(~root_sample_dir ++ "samples/Impulse_Responses/sc/whitenoise/slow_vibrato/noise_2.wav").fullPath,
                "buffer", Buffer.read(s, PathName(~root_sample_dir ++ "samples/Impulse_Responses/sc/whitenoise/slow_vibrato/noise_2.wav").fullPath),
            ]),
			"whitenoise_slow_2-5", Dictionary.newFrom([
                "path", PathName(~root_sample_dir ++ "samples/Impulse_Responses/sc/whitenoise/slow_vibrato/noise_2-5.wav").fullPath,
                "buffer", Buffer.read(s, PathName(~root_sample_dir ++ "samples/Impulse_Responses/sc/whitenoise/slow_vibrato/noise_2-5.wav").fullPath),
            ]),
			"whitenoise_slow_3", Dictionary.newFrom([
                "path", PathName(~root_sample_dir ++ "samples/Impulse_Responses/sc/whitenoise/slow_vibrato/noise_3.wav").fullPath,
                "buffer", Buffer.read(s, PathName(~root_sample_dir ++ "samples/Impulse_Responses/sc/whitenoise/slow_vibrato/noise_3.wav").fullPath),
            ]),
			"whitenoise_slow_3-5", Dictionary.newFrom([
                "path", PathName(~root_sample_dir ++ "samples/Impulse_Responses/sc/whitenoise/slow_vibrato/noise_3-5.wav").fullPath,
                "buffer", Buffer.read(s, PathName(~root_sample_dir ++ "samples/Impulse_Responses/sc/whitenoise/slow_vibrato/noise_3-5.wav").fullPath),
            ]),
			"whitenoise_slow_4", Dictionary.newFrom([
                "path", PathName(~root_sample_dir ++ "samples/Impulse_Responses/sc/whitenoise/slow_vibrato/noise_4.wav").fullPath,
                "buffer", Buffer.read(s, PathName(~root_sample_dir ++ "samples/Impulse_Responses/sc/whitenoise/slow_vibrato/noise_4.wav").fullPath),
            ]),
			"whitenoise_slow_4-5", Dictionary.newFrom([
                "path", PathName(~root_sample_dir ++ "samples/Impulse_Responses/sc/whitenoise/slow_vibrato/noise_4-5.wav").fullPath,
                "buffer", Buffer.read(s, PathName(~root_sample_dir ++ "samples/Impulse_Responses/sc/whitenoise/slow_vibrato/noise_4-5.wav").fullPath),
            ]),
			"whitenoise_slow_5", Dictionary.newFrom([
                "path", PathName(~root_sample_dir ++ "samples/Impulse_Responses/sc/whitenoise/slow_vibrato/noise_5.wav").fullPath,
                "buffer", Buffer.read(s, PathName(~root_sample_dir ++ "samples/Impulse_Responses/sc/whitenoise/slow_vibrato/noise_5.wav").fullPath),
            ]),
			"whitenoise_slow_5-5", Dictionary.newFrom([
                "path", PathName(~root_sample_dir ++ "samples/Impulse_Responses/sc/whitenoise/slow_vibrato/noise_5-5.wav").fullPath,
                "buffer", Buffer.read(s, PathName(~root_sample_dir ++ "samples/Impulse_Responses/sc/whitenoise/slow_vibrato/noise_5-5.wav").fullPath),
            ]),
			"whitenoise_slow_6", Dictionary.newFrom([
                "path", PathName(~root_sample_dir ++ "samples/Impulse_Responses/sc/whitenoise/slow_vibrato/noise_6.wav").fullPath,
                "buffer", Buffer.read(s, PathName(~root_sample_dir ++ "samples/Impulse_Responses/sc/whitenoise/slow_vibrato/noise_6.wav").fullPath),
            ]),
			"whitenoise_medium_0-5", Dictionary.newFrom([
                "path", PathName(~root_sample_dir ++ "samples/Impulse_Responses/sc/whitenoise/medium_vibrato/noise_0-5.wav").fullPath,
                "buffer", Buffer.read(s, PathName(~root_sample_dir ++ "samples/Impulse_Responses/sc/whitenoise/medium_vibrato/noise_0-5.wav").fullPath),
            ]),
			"whitenoise_medium_1", Dictionary.newFrom([
                "path", PathName(~root_sample_dir ++ "samples/Impulse_Responses/sc/whitenoise/medium_vibrato/noise_1.wav").fullPath,
                "buffer", Buffer.read(s, PathName(~root_sample_dir ++ "samples/Impulse_Responses/sc/whitenoise/medium_vibrato/noise_1.wav").fullPath),
            ]),
			"whitenoise_medium_1-5", Dictionary.newFrom([
                "path", PathName(~root_sample_dir ++ "samples/Impulse_Responses/sc/whitenoise/medium_vibrato/noise_1-5.wav").fullPath,
                "buffer", Buffer.read(s, PathName(~root_sample_dir ++ "samples/Impulse_Responses/sc/whitenoise/medium_vibrato/noise_1-5.wav").fullPath),
            ]),
			"whitenoise_medium_2", Dictionary.newFrom([
                "path", PathName(~root_sample_dir ++ "samples/Impulse_Responses/sc/whitenoise/medium_vibrato/noise_2.wav").fullPath,
                "buffer", Buffer.read(s, PathName(~root_sample_dir ++ "samples/Impulse_Responses/sc/whitenoise/medium_vibrato/noise_2.wav").fullPath),
            ]),
			"whitenoise_medium_2-5", Dictionary.newFrom([
                "path", PathName(~root_sample_dir ++ "samples/Impulse_Responses/sc/whitenoise/medium_vibrato/noise_2-5.wav").fullPath,
                "buffer", Buffer.read(s, PathName(~root_sample_dir ++ "samples/Impulse_Responses/sc/whitenoise/medium_vibrato/noise_2-5.wav").fullPath),
            ]),
			"whitenoise_medium_3", Dictionary.newFrom([
                "path", PathName(~root_sample_dir ++ "samples/Impulse_Responses/sc/whitenoise/medium_vibrato/noise_3.wav").fullPath,
                "buffer", Buffer.read(s, PathName(~root_sample_dir ++ "samples/Impulse_Responses/sc/whitenoise/medium_vibrato/noise_3.wav").fullPath),
            ]),
			"whitenoise_medium_3-5", Dictionary.newFrom([
                "path", PathName(~root_sample_dir ++ "samples/Impulse_Responses/sc/whitenoise/medium_vibrato/noise_3-5.wav").fullPath,
                "buffer", Buffer.read(s, PathName(~root_sample_dir ++ "samples/Impulse_Responses/sc/whitenoise/medium_vibrato/noise_3-5.wav").fullPath),
            ]),
			"whitenoise_medium_4", Dictionary.newFrom([
                "path", PathName(~root_sample_dir ++ "samples/Impulse_Responses/sc/whitenoise/medium_vibrato/noise_4.wav").fullPath,
                "buffer", Buffer.read(s, PathName(~root_sample_dir ++ "samples/Impulse_Responses/sc/whitenoise/medium_vibrato/noise_4.wav").fullPath),
            ]),
			"whitenoise_medium_4-5", Dictionary.newFrom([
                "path", PathName(~root_sample_dir ++ "samples/Impulse_Responses/sc/whitenoise/medium_vibrato/noise_4-5.wav").fullPath,
                "buffer", Buffer.read(s, PathName(~root_sample_dir ++ "samples/Impulse_Responses/sc/whitenoise/medium_vibrato/noise_4-5.wav").fullPath),
            ]),
			"whitenoise_medium_5", Dictionary.newFrom([
                "path", PathName(~root_sample_dir ++ "samples/Impulse_Responses/sc/whitenoise/medium_vibrato/noise_5.wav").fullPath,
                "buffer", Buffer.read(s, PathName(~root_sample_dir ++ "samples/Impulse_Responses/sc/whitenoise/medium_vibrato/noise_5.wav").fullPath),
            ]),
			"whitenoise_medium_5-5", Dictionary.newFrom([
                "path", PathName(~root_sample_dir ++ "samples/Impulse_Responses/sc/whitenoise/medium_vibrato/noise_5-5.wav").fullPath,
                "buffer", Buffer.read(s, PathName(~root_sample_dir ++ "samples/Impulse_Responses/sc/whitenoise/medium_vibrato/noise_5-5.wav").fullPath),
            ]),
			"whitenoise_medium_6", Dictionary.newFrom([
                "path", PathName(~root_sample_dir ++ "samples/Impulse_Responses/sc/whitenoise/medium_vibrato/noise_6.wav").fullPath,
                "buffer", Buffer.read(s, PathName(~root_sample_dir ++ "samples/Impulse_Responses/sc/whitenoise/medium_vibrato/noise_6.wav").fullPath),
            ]),
		])
    ])
]);