~samples.putPairs([
    "impulse_responses", Dictionary.newFrom([
        "general", Dictionary.newFrom([
            "spring_reverb", Dictionary.newFrom([
                "path", PathName(~root_sample_dir ++ "samples/Impulse_Responses/131034__0e0__roland-re-301-spring-reverb-impulse.wav").fullPath,
                "buffer", Buffer.read(s, PathName(~root_sample_dir ++ "samples/Impulse_Responses/131034__0e0__roland-re-301-spring-reverb-impulse.wav").fullPath),
            ]),
            "lunchbox_amplifier", Dictionary.newFrom([
                "path", PathName(~root_sample_dir ++ "samples/Impulse_Responses/252845__kijjaz__20141025-ir-zt-lunchbox-amplifier.aiff").fullPath,
                "buffer", Buffer.read(s, PathName(~root_sample_dir ++ "samples/Impulse_Responses/252845__kijjaz__20141025-ir-zt-lunchbox-amplifier.aiff").fullPath),
            ]),
            "bedroom", Dictionary.newFrom([
                "path", PathName(~root_sample_dir ++ "samples/Impulse_Responses/382907__uzbazur__little-bedroom-my-bedroom-impulse-response.wav").fullPath,
                "buffer", Buffer.read(s, PathName(~root_sample_dir ++ "samples/Impulse_Responses/382907__uzbazur__little-bedroom-my-bedroom-impulse-response.wav").fullPath),
            ]),
            "car_interior", Dictionary.newFrom([
                "path", PathName(~root_sample_dir ++ "samples/Impulse_Responses/555787__jamespeacock4616__car-interior-impulse-response-2.wav").fullPath,
                "buffer", Buffer.read(s, PathName(~root_sample_dir ++ "samples/Impulse_Responses/555787__jamespeacock4616__car-interior-impulse-response-2.wav").fullPath),
            ]),
            "wine_tank", Dictionary.newFrom([
                "path", PathName(~root_sample_dir ++ "samples/Impulse_Responses/560377__manysounds__1000-liter-wine-tank-plate-spring-impulse.wav").fullPath,
                "buffer", Buffer.read(s, PathName(~root_sample_dir ++ "samples/Impulse_Responses/560377__manysounds__1000-liter-wine-tank-plate-spring-impulse.wav").fullPath),
            ]),
            "fishbowl", Dictionary.newFrom([
                "path", PathName(~root_sample_dir ++ "samples/Impulse_Responses/581339__fractanimal__dekker_fractanimal_impulse_response_large_glass_fishbowl_helmet.wav").fullPath,
                "buffer", Buffer.read(s, PathName(~root_sample_dir ++ "samples/Impulse_Responses/581339__fractanimal__dekker_fractanimal_impulse_response_large_glass_fishbowl_helmet.wav").fullPath),
            ]),
        ]),
        "korg", Dictionary.newFrom([
            "arena", Dictionary.newFrom([
                "path", PathName(~root_sample_dir ++ "samples/Impulse_Responses/8103__jesterdyne__korg-d888-reverbs/129408__jesterdyne__korg-d888-arena.wav").fullPath,
                "buffer", Buffer.read(s, PathName(~root_sample_dir ++ "samples/Impulse_Responses/8103__jesterdyne__korg-d888-reverbs/129408__jesterdyne__korg-d888-arena.wav").fullPath),
            ]),
            "hall", Dictionary.newFrom([
                "path", PathName(~root_sample_dir ++ "samples/Impulse_Responses/8103__jesterdyne__korg-d888-reverbs/129409__jesterdyne__korg-d888-hall.wav").fullPath,
                "buffer", Buffer.read(s, PathName(~root_sample_dir ++ "samples/Impulse_Responses/8103__jesterdyne__korg-d888-reverbs/129409__jesterdyne__korg-d888-hall.wav").fullPath),
            ]),
            "garage", Dictionary.newFrom([
                "path", PathName(~root_sample_dir ++ "samples/Impulse_Responses/8103__jesterdyne__korg-d888-reverbs/129410__jesterdyne__korg-d888-garage.wav").fullPath,
                "buffer", Buffer.read(s, PathName(~root_sample_dir ++ "samples/Impulse_Responses/8103__jesterdyne__korg-d888-reverbs/129410__jesterdyne__korg-d888-garage.wav").fullPath),
            ]),
            "club", Dictionary.newFrom([
                "path", PathName(~root_sample_dir ++ "samples/Impulse_Responses/8103__jesterdyne__korg-d888-reverbs/129411__jesterdyne__korg-d888-club.wav").fullPath,
                "buffer", Buffer.read(s, PathName(~root_sample_dir ++ "samples/Impulse_Responses/8103__jesterdyne__korg-d888-reverbs/129411__jesterdyne__korg-d888-club.wav").fullPath),
            ]),
            "cathedral", Dictionary.newFrom([
                "path", PathName(~root_sample_dir ++ "samples/Impulse_Responses/8103__jesterdyne__korg-d888-reverbs/129412__jesterdyne__korg-d888-cathetral.wav").fullPath,
                "buffer", Buffer.read(s, PathName(~root_sample_dir ++ "samples/Impulse_Responses/8103__jesterdyne__korg-d888-reverbs/129412__jesterdyne__korg-d888-cathetral.wav").fullPath),
            ]),
            "studio", Dictionary.newFrom([
                "path", PathName(~root_sample_dir ++ "samples/Impulse_Responses/8103__jesterdyne__korg-d888-reverbs/129413__jesterdyne__korg-d888-studio.wav").fullPath,
                "buffer", Buffer.read(s, PathName(~root_sample_dir ++ "samples/Impulse_Responses/8103__jesterdyne__korg-d888-reverbs/129413__jesterdyne__korg-d888-studio.wav").fullPath),
            ]),
            "room", Dictionary.newFrom([
                "path", PathName(~root_sample_dir ++ "samples/Impulse_Responses/8103__jesterdyne__korg-d888-reverbs/129414__jesterdyne__korg-d888-room.wav").fullPath,
                "buffer", Buffer.read(s, PathName(~root_sample_dir ++ "samples/Impulse_Responses/8103__jesterdyne__korg-d888-reverbs/129414__jesterdyne__korg-d888-room.wav").fullPath),
            ])
        ]),
        "antique", Dictionary.newFrom([
            "oswald", Dictionary.newFrom([
                "path", PathName(~root_sample_dir ++ "samples/Impulse_Responses/11613__noisecollector__antique-impulse-responses/184100__noisecollector__ir_oswald.wav").fullPath,
                "buffer", Buffer.read(s, PathName(~root_sample_dir ++ "samples/Impulse_Responses/11613__noisecollector__antique-impulse-responses/184100__noisecollector__ir_oswald.wav").fullPath),
            ]),
            "opticalscanofrecord", Dictionary.newFrom([
                "path", PathName(~root_sample_dir ++ "samples/Impulse_Responses/11613__noisecollector__antique-impulse-responses/184101__noisecollector__ir_opticalscanofrecord.wav").fullPath,
                "buffer", Buffer.read(s, PathName(~root_sample_dir ++ "samples/Impulse_Responses/11613__noisecollector__antique-impulse-responses/184101__noisecollector__ir_opticalscanofrecord.wav").fullPath),
            ]),
            "native", Dictionary.newFrom([
                "path", PathName(~root_sample_dir ++ "samples/Impulse_Responses/11613__noisecollector__antique-impulse-responses/184102__noisecollector__ir_native.wav").fullPath,
                "buffer", Buffer.read(s, PathName(~root_sample_dir ++ "samples/Impulse_Responses/11613__noisecollector__antique-impulse-responses/184102__noisecollector__ir_native.wav").fullPath),
            ]),
            "hindenburg_cleanster", Dictionary.newFrom([
                "path", PathName(~root_sample_dir ++ "samples/Impulse_Responses/11613__noisecollector__antique-impulse-responses/184103__noisecollector__ir_hindenburg_cleanster.wav").fullPath,
                "buffer", Buffer.read(s, PathName(~root_sample_dir ++ "samples/Impulse_Responses/11613__noisecollector__antique-impulse-responses/184103__noisecollector__ir_hindenburg_cleanster.wav").fullPath),
            ]),
            "wire_truman", Dictionary.newFrom([
                "path", PathName(~root_sample_dir ++ "samples/Impulse_Responses/11613__noisecollector__antique-impulse-responses/184104__noisecollector__ir_wire_truman.wav").fullPath,
                "buffer", Buffer.read(s, PathName(~root_sample_dir ++ "samples/Impulse_Responses/11613__noisecollector__antique-impulse-responses/184104__noisecollector__ir_wire_truman.wav").fullPath),
            ]),
            "waxizzle", Dictionary.newFrom([
                "path", PathName(~root_sample_dir ++ "samples/Impulse_Responses/11613__noisecollector__antique-impulse-responses/184105__noisecollector__ir_waxizzle.wav").fullPath,
                "buffer", Buffer.read(s, PathName(~root_sample_dir ++ "samples/Impulse_Responses/11613__noisecollector__antique-impulse-responses/184105__noisecollector__ir_waxizzle.wav").fullPath),
            ]),
            "wax_morewaxier", Dictionary.newFrom([
                "path", PathName(~root_sample_dir ++ "samples/Impulse_Responses/11613__noisecollector__antique-impulse-responses/184106__noisecollector__ir_wax_morewaxier.wav").fullPath,
                "buffer", Buffer.read(s, PathName(~root_sample_dir ++ "samples/Impulse_Responses/11613__noisecollector__antique-impulse-responses/184106__noisecollector__ir_wax_morewaxier.wav").fullPath),
            ]),
            "wax", Dictionary.newFrom([
                "path", PathName(~root_sample_dir ++ "samples/Impulse_Responses/11613__noisecollector__antique-impulse-responses/184107__noisecollector__ir_wax.wav").fullPath,
                "buffer", Buffer.read(s, PathName(~root_sample_dir ++ "samples/Impulse_Responses/11613__noisecollector__antique-impulse-responses/184107__noisecollector__ir_wax.wav").fullPath),
            ]),
            "wiresubsonar", Dictionary.newFrom([
                "path", PathName(~root_sample_dir ++ "samples/Impulse_Responses/11613__noisecollector__antique-impulse-responses/184108__noisecollector__ir_wiresubsonar.wav").fullPath,
                "buffer", Buffer.read(s, PathName(~root_sample_dir ++ "samples/Impulse_Responses/11613__noisecollector__antique-impulse-responses/184108__noisecollector__ir_wiresubsonar.wav").fullPath),
            ]),
            "wire_submarine", Dictionary.newFrom([
                "path", PathName(~root_sample_dir ++ "samples/Impulse_Responses/11613__noisecollector__antique-impulse-responses/184109__noisecollector__ir_wire_submarine.wav").fullPath,
                "buffer", Buffer.read(s, PathName(~root_sample_dir ++ "samples/Impulse_Responses/11613__noisecollector__antique-impulse-responses/184109__noisecollector__ir_wire_submarine.wav").fullPath),
            ]),
            "jfk_assissinmodulatrix", Dictionary.newFrom([
                "path", PathName(~root_sample_dir ++ "samples/Impulse_Responses/11613__noisecollector__antique-impulse-responses/184110__noisecollector__jfk_assissinmodulatrix_ir.wav").fullPath,
                "buffer", Buffer.read(s, PathName(~root_sample_dir ++ "samples/Impulse_Responses/11613__noisecollector__antique-impulse-responses/184110__noisecollector__jfk_assissinmodulatrix_ir.wav").fullPath),
            ]),
            "tirpitz", Dictionary.newFrom([
                "path", PathName(~root_sample_dir ++ "samples/Impulse_Responses/11613__noisecollector__antique-impulse-responses/184111__noisecollector__tirpitz_ir.wav").fullPath,
                "buffer", Buffer.read(s, PathName(~root_sample_dir ++ "samples/Impulse_Responses/11613__noisecollector__antique-impulse-responses/184111__noisecollector__tirpitz_ir.wav").fullPath),
            ]),
            "dictaphoneir_forlife", Dictionary.newFrom([
                "path", PathName(~root_sample_dir ++ "samples/Impulse_Responses/11613__noisecollector__antique-impulse-responses/184112__noisecollector__dictaphoneir_forlife.wav").fullPath,
                "buffer", Buffer.read(s, PathName(~root_sample_dir ++ "samples/Impulse_Responses/11613__noisecollector__antique-impulse-responses/184112__noisecollector__dictaphoneir_forlife.wav").fullPath),
            ]),
            "hindenburg", Dictionary.newFrom([
                "path", PathName(~root_sample_dir ++ "samples/Impulse_Responses/11613__noisecollector__antique-impulse-responses/184113__noisecollector__ir_hindenburg.wav").fullPath,
                "buffer", Buffer.read(s, PathName(~root_sample_dir ++ "samples/Impulse_Responses/11613__noisecollector__antique-impulse-responses/184113__noisecollector__ir_hindenburg.wav").fullPath),
            ]),
            "ancientinstrument_ir_lab", Dictionary.newFrom([
                "path", PathName(~root_sample_dir ++ "samples/Impulse_Responses/11613__noisecollector__antique-impulse-responses/184114__noisecollector__ancientinstrument_ir_lab.wav").fullPath,
                "buffer", Buffer.read(s, PathName(~root_sample_dir ++ "samples/Impulse_Responses/11613__noisecollector__antique-impulse-responses/184114__noisecollector__ancientinstrument_ir_lab.wav").fullPath),
            ]),
            "anothersubmarine", Dictionary.newFrom([
                "path", PathName(~root_sample_dir ++ "samples/Impulse_Responses/11613__noisecollector__antique-impulse-responses/184115__noisecollector__anothersubmarineir.wav").fullPath,
                "buffer", Buffer.read(s, PathName(~root_sample_dir ++ "samples/Impulse_Responses/11613__noisecollector__antique-impulse-responses/184115__noisecollector__anothersubmarineir.wav").fullPath),
            ]),
            "wire_sub_clean", Dictionary.newFrom([
                "path", PathName(~root_sample_dir ++ "samples/Impulse_Responses/11613__noisecollector__antique-impulse-responses/184116__noisecollector__ir_wire_sub_clean.wav").fullPath,
                "buffer", Buffer.read(s, PathName(~root_sample_dir ++ "samples/Impulse_Responses/11613__noisecollector__antique-impulse-responses/184116__noisecollector__ir_wire_sub_clean.wav").fullPath),
            ]),
            "wire_sub_delay", Dictionary.newFrom([
                "path", PathName(~root_sample_dir ++ "samples/Impulse_Responses/11613__noisecollector__antique-impulse-responses/184117__noisecollector__ir_wire_sub_delay.wav").fullPath,
                "buffer", Buffer.read(s, PathName(~root_sample_dir ++ "samples/Impulse_Responses/11613__noisecollector__antique-impulse-responses/184117__noisecollector__ir_wire_sub_delay.wav").fullPath),
            ]),
            "moon", Dictionary.newFrom([
                "path", PathName(~root_sample_dir ++ "samples/Impulse_Responses/11613__noisecollector__antique-impulse-responses/184118__noisecollector__ir_moon.wav").fullPath,
                "buffer", Buffer.read(s, PathName(~root_sample_dir ++ "samples/Impulse_Responses/11613__noisecollector__antique-impulse-responses/184118__noisecollector__ir_moon.wav").fullPath),
            ]),
            "moon2", Dictionary.newFrom([
                "path", PathName(~root_sample_dir ++ "samples/Impulse_Responses/11613__noisecollector__antique-impulse-responses/184119__noisecollector__ir_moon2.wav").fullPath,
                "buffer", Buffer.read(s, PathName(~root_sample_dir ++ "samples/Impulse_Responses/11613__noisecollector__antique-impulse-responses/184119__noisecollector__ir_moon2.wav").fullPath),
            ]),
            "subrec", Dictionary.newFrom([
                "path", PathName(~root_sample_dir ++ "samples/Impulse_Responses/11613__noisecollector__antique-impulse-responses/184120__noisecollector__subrec_ir.wav").fullPath,
                "buffer", Buffer.read(s, PathName(~root_sample_dir ++ "samples/Impulse_Responses/11613__noisecollector__antique-impulse-responses/184120__noisecollector__subrec_ir.wav").fullPath),
            ]),
            "redpyramid", Dictionary.newFrom([
                "path", PathName(~root_sample_dir ++ "samples/Impulse_Responses/11613__noisecollector__antique-impulse-responses/184121__noisecollector__redpyramid_ir.wav").fullPath,
                "buffer", Buffer.read(s, PathName(~root_sample_dir ++ "samples/Impulse_Responses/11613__noisecollector__antique-impulse-responses/184121__noisecollector__redpyramid_ir.wav").fullPath),
            ]),
            "jfk_taps", Dictionary.newFrom([
                "path", PathName(~root_sample_dir ++ "samples/Impulse_Responses/11613__noisecollector__antique-impulse-responses/184122__noisecollector__jfk_taps_ir.wav").fullPath,
                "buffer", Buffer.read(s, PathName(~root_sample_dir ++ "samples/Impulse_Responses/11613__noisecollector__antique-impulse-responses/184122__noisecollector__jfk_taps_ir.wav").fullPath),
            ]),
            "rike", Dictionary.newFrom([
                "path", PathName(~root_sample_dir ++ "samples/Impulse_Responses/811613__noisecollector__antique-impulse-responses/184124__noisecollector__rike_ir.wav").fullPath,
                "buffer", Buffer.read(s, PathName(~root_sample_dir ++ "samples/Impulse_Responses/11613__noisecollector__antique-impulse-responses/184124__noisecollector__rike_ir.wav").fullPath),
            ]),
            "rike2", Dictionary.newFrom([
                "path", PathName(~root_sample_dir ++ "samples/Impulse_Responses/11613__noisecollector__antique-impulse-responses/184123__noisecollector__rike_ir_2.wav").fullPath,
                "buffer", Buffer.read(s, PathName(~root_sample_dir ++ "samples/Impulse_Responses/11613__noisecollector__antique-impulse-responses/184123__noisecollector__rike_ir_2.wav").fullPath),
            ]),
            "sofarbomb", Dictionary.newFrom([
                "path", PathName(~root_sample_dir ++ "samples/Impulse_Responses/11613__noisecollector__antique-impulse-responses/184125__noisecollector__sofarbomb_ir.wav").fullPath,
                "buffer", Buffer.read(s, PathName(~root_sample_dir ++ "samples/Impulse_Responses/11613__noisecollector__antique-impulse-responses/184125__noisecollector__sofarbomb_ir.wav").fullPath),
            ]),
            "rike_newsreel", Dictionary.newFrom([
                "path", PathName(~root_sample_dir ++ "samples/Impulse_Responses/11613__noisecollector__antique-impulse-responses/184126__noisecollector__rike_ir_newsreel.wav").fullPath,
                "buffer", Buffer.read(s, PathName(~root_sample_dir ++ "samples/Impulse_Responses/11613__noisecollector__antique-impulse-responses/184126__noisecollector__rike_ir_newsreel.wav").fullPath),
            ])
        ]),
        "prodepha", Dictionary.newFrom([
            "tunnel-03", Dictionary.newFrom([
                "path", PathName(~root_sample_dir ++ "samples/Impulse_Responses/19585__prodepha__impulse-responses/345343__prodepha__doerener-tunnel-03.wav").fullPath,
                "buffer", Buffer.read(s, PathName(~root_sample_dir ++ "samples/Impulse_Responses/19585__prodepha__impulse-responses/345343__prodepha__doerener-tunnel-03.wav").fullPath),
            ]),
            "tunnel-02", Dictionary.newFrom([
                "path", PathName(~root_sample_dir ++ "samples/Impulse_Responses/19585__prodepha__impulse-responses/345344__prodepha__doerener-tunnel-02.wav").fullPath,
                "buffer", Buffer.read(s, PathName(~root_sample_dir ++ "samples/Impulse_Responses/19585__prodepha__impulse-responses/345344__prodepha__doerener-tunnel-02.wav").fullPath),
            ]),
            "tunnel-01", Dictionary.newFrom([
                "path", PathName(~root_sample_dir ++ "samples/Impulse_Responses/19585__prodepha__impulse-responses/345345__prodepha__doerener-tunnel-01.wav").fullPath,
                "buffer", Buffer.read(s, PathName(~root_sample_dir ++ "samples/Impulse_Responses/19585__prodepha__impulse-responses/345345__prodepha__doerener-tunnel-01.wav").fullPath),
            ]),
            "kitchen", Dictionary.newFrom([
                "path", PathName(~root_sample_dir ++ "samples/Impulse_Responses/19585__prodepha__impulse-responses/345351__prodepha__musik-aus-meinem-zimmer-in-der-kueche.wav").fullPath,
                "buffer", Buffer.read(s, PathName(~root_sample_dir ++ "samples/Impulse_Responses/19585__prodepha__impulse-responses/345351__prodepha__musik-aus-meinem-zimmer-in-der-kueche.wav").fullPath),
            ]),
            "bedroom", Dictionary.newFrom([
                "path", PathName(~root_sample_dir ++ "samples/Impulse_Responses/19585__prodepha__impulse-responses/345352__prodepha__musik-aus-meinem-zimmer-im-bad.wav").fullPath,
                "buffer", Buffer.read(s, PathName(~root_sample_dir ++ "samples/Impulse_Responses/19585__prodepha__impulse-responses/345352__prodepha__musik-aus-meinem-zimmer-im-bad.wav").fullPath),
            ])
        ]),
        "alesis_microverb", Dictionary.newFrom([
            "large-2", Dictionary.newFrom([
                "path", PathName(~root_sample_dir ++ "samples/Impulse_Responses/23336__joeribraams__1986-alesis-microverb-digital-reverb-impulse-response-pack/414174__joeribraams__alesis-microverb-ir-large-2.wav").fullPath,
                "buffer", Buffer.read(s, PathName(~root_sample_dir ++ "samples/Impulse_Responses/23336__joeribraams__1986-alesis-microverb-digital-reverb-impulse-response-pack/414174__joeribraams__alesis-microverb-ir-large-2.wav").fullPath),
            ]),
            "large-1", Dictionary.newFrom([
                "path", PathName(~root_sample_dir ++ "samples/Impulse_Responses/23336__joeribraams__1986-alesis-microverb-digital-reverb-impulse-response-pack/414175__joeribraams__alesis-microverb-ir-large-1.wav").fullPath,
                "buffer", Buffer.read(s, PathName(~root_sample_dir ++ "samples/Impulse_Responses/23336__joeribraams__1986-alesis-microverb-digital-reverb-impulse-response-pack/414175__joeribraams__alesis-microverb-ir-large-1.wav").fullPath),
            ]),
            "gate-2", Dictionary.newFrom([
                "path", PathName(~root_sample_dir ++ "samples/Impulse_Responses/23336__joeribraams__1986-alesis-microverb-digital-reverb-impulse-response-pack/414176__joeribraams__alesis-microverb-ir-gate-2.wav").fullPath,
                "buffer", Buffer.read(s, PathName(~root_sample_dir ++ "samples/Impulse_Responses/23336__joeribraams__1986-alesis-microverb-digital-reverb-impulse-response-pack/414176__joeribraams__alesis-microverb-ir-gate-2.wav").fullPath),
            ]),
            "gate-1", Dictionary.newFrom([
                "path", PathName(~root_sample_dir ++ "samples/Impulse_Responses/23336__joeribraams__1986-alesis-microverb-digital-reverb-impulse-response-pack/414177__joeribraams__alesis-microverb-ir-gate-1.wav").fullPath,
                "buffer", Buffer.read(s, PathName(~root_sample_dir ++ "samples/Impulse_Responses/23336__joeribraams__1986-alesis-microverb-digital-reverb-impulse-response-pack/414177__joeribraams__alesis-microverb-ir-gate-1.wav").fullPath),
            ]),
            "large-6", Dictionary.newFrom([
                "path", PathName(~root_sample_dir ++ "samples/Impulse_Responses/23336__joeribraams__1986-alesis-microverb-digital-reverb-impulse-response-pack/414178__joeribraams__alesis-microverb-ir-large-6.wav").fullPath,
                "buffer", Buffer.read(s, PathName(~root_sample_dir ++ "samples/Impulse_Responses/23336__joeribraams__1986-alesis-microverb-digital-reverb-impulse-response-pack/414178__joeribraams__alesis-microverb-ir-large-6.wav").fullPath),
            ]),
            "large-5", Dictionary.newFrom([
                "path", PathName(~root_sample_dir ++ "samples/Impulse_Responses/23336__joeribraams__1986-alesis-microverb-digital-reverb-impulse-response-pack/414179__joeribraams__alesis-microverb-ir-large-5.wav").fullPath,
                "buffer", Buffer.read(s, PathName(~root_sample_dir ++ "samples/Impulse_Responses/23336__joeribraams__1986-alesis-microverb-digital-reverb-impulse-response-pack/414179__joeribraams__alesis-microverb-ir-large-5.wav").fullPath),
            ]),
            "large-4", Dictionary.newFrom([
                "path", PathName(~root_sample_dir ++ "samples/Impulse_Responses/23336__joeribraams__1986-alesis-microverb-digital-reverb-impulse-response-pack/414180__joeribraams__alesis-microverb-ir-large-4.wav").fullPath,
                "buffer", Buffer.read(s, PathName(~root_sample_dir ++ "samples/Impulse_Responses/23336__joeribraams__1986-alesis-microverb-digital-reverb-impulse-response-pack/414180__joeribraams__alesis-microverb-ir-large-4.wav").fullPath),
            ]),
            "large-3", Dictionary.newFrom([
                "path", PathName(~root_sample_dir ++ "samples/Impulse_Responses/23336__joeribraams__1986-alesis-microverb-digital-reverb-impulse-response-pack/414181__joeribraams__alesis-microverb-ir-large-3.wav").fullPath,
                "buffer", Buffer.read(s, PathName(~root_sample_dir ++ "samples/Impulse_Responses/23336__joeribraams__1986-alesis-microverb-digital-reverb-impulse-response-pack/414181__joeribraams__alesis-microverb-ir-large-3.wav").fullPath),
            ]),
            "reverse", Dictionary.newFrom([
                "path", PathName(~root_sample_dir ++ "samples/Impulse_Responses/23336__joeribraams__1986-alesis-microverb-digital-reverb-impulse-response-pack/414182__joeribraams__alesis-microverb-ir-reverse.wav").fullPath,
                "buffer", Buffer.read(s, PathName(~root_sample_dir ++ "samples/Impulse_Responses/23336__joeribraams__1986-alesis-microverb-digital-reverb-impulse-response-pack/414182__joeribraams__alesis-microverb-ir-reverse.wav").fullPath),
            ]),
            "large-7", Dictionary.newFrom([
                "path", PathName(~root_sample_dir ++ "samples/Impulse_Responses/23336__joeribraams__1986-alesis-microverb-digital-reverb-impulse-response-pack/414183__joeribraams__alesis-microverb-ir-large-7.wav").fullPath,
                "buffer", Buffer.read(s, PathName(~root_sample_dir ++ "samples/Impulse_Responses/23336__joeribraams__1986-alesis-microverb-digital-reverb-impulse-response-pack/414183__joeribraams__alesis-microverb-ir-large-7.wav").fullPath),
            ]),
            "small-2", Dictionary.newFrom([
                "path", PathName(~root_sample_dir ++ "samples/Impulse_Responses/23336__joeribraams__1986-alesis-microverb-digital-reverb-impulse-response-pack/414184__joeribraams__alesis-microverb-ir-small-2.wav").fullPath,
                "buffer", Buffer.read(s, PathName(~root_sample_dir ++ "samples/Impulse_Responses/23336__joeribraams__1986-alesis-microverb-digital-reverb-impulse-response-pack/414184__joeribraams__alesis-microverb-ir-small-2.wav").fullPath),
            ]),
            "small-1", Dictionary.newFrom([
                "path", PathName(~root_sample_dir ++ "samples/Impulse_Responses/23336__joeribraams__1986-alesis-microverb-digital-reverb-impulse-response-pack/414185__joeribraams__alesis-microverb-ir-small-1.wav").fullPath,
                "buffer", Buffer.read(s, PathName(~root_sample_dir ++ "samples/Impulse_Responses/23336__joeribraams__1986-alesis-microverb-digital-reverb-impulse-response-pack/414185__joeribraams__alesis-microverb-ir-small-1.wav").fullPath),
            ]),
            "small-3", Dictionary.newFrom([
                "path", PathName(~root_sample_dir ++ "samples/Impulse_Responses/23336__joeribraams__1986-alesis-microverb-digital-reverb-impulse-response-pack/414186__joeribraams__alesis-microverb-ir-small-3.wav").fullPath,
                "buffer", Buffer.read(s, PathName(~root_sample_dir ++ "samples/Impulse_Responses/23336__joeribraams__1986-alesis-microverb-digital-reverb-impulse-response-pack/414186__joeribraams__alesis-microverb-ir-small-3.wav").fullPath),
            ]),
            "small-5", Dictionary.newFrom([
                "path", PathName(~root_sample_dir ++ "samples/Impulse_Responses/23336__joeribraams__1986-alesis-microverb-digital-reverb-impulse-response-pack/414187__joeribraams__alesis-microverb-ir-small-5.wav").fullPath,
                "buffer", Buffer.read(s, PathName(~root_sample_dir ++ "samples/Impulse_Responses/23336__joeribraams__1986-alesis-microverb-digital-reverb-impulse-response-pack/414187__joeribraams__alesis-microverb-ir-small-5.wav").fullPath),
            ]),
            "small-6", Dictionary.newFrom([
                "path", PathName(~root_sample_dir ++ "samples/Impulse_Responses/23336__joeribraams__1986-alesis-microverb-digital-reverb-impulse-response-pack/414188__joeribraams__alesis-microverb-ir-small-6.wav").fullPath,
                "buffer", Buffer.read(s, PathName(~root_sample_dir ++ "samples/Impulse_Responses/23336__joeribraams__1986-alesis-microverb-digital-reverb-impulse-response-pack/414188__joeribraams__alesis-microverb-ir-small-6.wav").fullPath),
            ]),
            "small-4", Dictionary.newFrom([
                "path", PathName(~root_sample_dir ++ "samples/Impulse_Responses/23336__joeribraams__1986-alesis-microverb-digital-reverb-impulse-response-pack/414189__joeribraams__alesis-microverb-ir-small-4.wav").fullPath,
                "buffer", Buffer.read(s, PathName(~root_sample_dir ++ "samples/Impulse_Responses/23336__joeribraams__1986-alesis-microverb-digital-reverb-impulse-response-pack/414189__joeribraams__alesis-microverb-ir-small-4.wav").fullPath),
            ])
        ]),
        "tim_verberne", Dictionary.newFrom([
            "cave_01", Dictionary.newFrom([
                "path", PathName(~root_sample_dir ++ "samples/Impulse_Responses/30310__tim_verberne__impulse-responses/537624__tim_verberne__ir_st_cave_01.wav").fullPath,
                "buffer", Buffer.read(s, PathName(~root_sample_dir ++ "samples/Impulse_Responses/30310__tim_verberne__impulse-responses/537624__tim_verberne__ir_st_cave_01.wav").fullPath),
            ]),
            "alleyway_03", Dictionary.newFrom([
                "path", PathName(~root_sample_dir ++ "samples/Impulse_Responses/30310__tim_verberne__impulse-responses/537625__tim_verberne__ir_st_alleyway_03.wav").fullPath,
                "buffer", Buffer.read(s, PathName(~root_sample_dir ++ "samples/Impulse_Responses/30310__tim_verberne__impulse-responses/537625__tim_verberne__ir_st_alleyway_03.wav").fullPath),
            ]),
            "alleyway_02", Dictionary.newFrom([
                "path", PathName(~root_sample_dir ++ "samples/Impulse_Responses/30310__tim_verberne__impulse-responses/537626__tim_verberne__ir_st_alleyway_02.wav").fullPath,
                "buffer", Buffer.read(s, PathName(~root_sample_dir ++ "samples/Impulse_Responses/30310__tim_verberne__impulse-responses/537626__tim_verberne__ir_st_alleyway_02.wav").fullPath),
            ]),
            "alleyway_01", Dictionary.newFrom([
                "path", PathName(~root_sample_dir ++ "samples/Impulse_Responses/30310__tim_verberne__impulse-responses/537627__tim_verberne__ir_st_alleyway_01.wav").fullPath,
                "buffer", Buffer.read(s, PathName(~root_sample_dir ++ "samples/Impulse_Responses/30310__tim_verberne__impulse-responses/537627__tim_verberne__ir_st_alleyway_01.wav").fullPath),
            ]),
            "church_02", Dictionary.newFrom([
                "path", PathName(~root_sample_dir ++ "samples/Impulse_Responses/30310__tim_verberne__impulse-responses/537628__tim_verberne__ir_st_church_02.wav").fullPath,
                "buffer", Buffer.read(s, PathName(~root_sample_dir ++ "samples/Impulse_Responses/30310__tim_verberne__impulse-responses/537628__tim_verberne__ir_st_church_02.wav").fullPath),
            ]),
            "church_01", Dictionary.newFrom([
                "path", PathName(~root_sample_dir ++ "samples/Impulse_Responses/30310__tim_verberne__impulse-responses/537629__tim_verberne__ir_st_church_01.wav").fullPath,
                "buffer", Buffer.read(s, PathName(~root_sample_dir ++ "samples/Impulse_Responses/30310__tim_verberne__impulse-responses/537629__tim_verberne__ir_st_church_01.wav").fullPath),
            ]),
            "cave_03", Dictionary.newFrom([
                "path", PathName(~root_sample_dir ++ "samples/Impulse_Responses/30310__tim_verberne__impulse-responses/537630__tim_verberne__ir_st_cave_03.wav").fullPath,
                "buffer", Buffer.read(s, PathName(~root_sample_dir ++ "samples/Impulse_Responses/30310__tim_verberne__impulse-responses/537630__tim_verberne__ir_st_cave_03.wav").fullPath),
            ]),
            "cave_02", Dictionary.newFrom([
                "path", PathName(~root_sample_dir ++ "samples/Impulse_Responses/30310__tim_verberne__impulse-responses/537631__tim_verberne__ir_st_cave_02.wav").fullPath,
                "buffer", Buffer.read(s, PathName(~root_sample_dir ++ "samples/Impulse_Responses/30310__tim_verberne__impulse-responses/537631__tim_verberne__ir_st_cave_02.wav").fullPath),
            ]),
            "courtyard_01", Dictionary.newFrom([
                "path", PathName(~root_sample_dir ++ "samples/Impulse_Responses/30310__tim_verberne__impulse-responses/537632__tim_verberne__ir_st_courtyard_01.wav").fullPath,
                "buffer", Buffer.read(s, PathName(~root_sample_dir ++ "samples/Impulse_Responses/30310__tim_verberne__impulse-responses/537632__tim_verberne__ir_st_courtyard_01.wav").fullPath),
            ]),
            "church_03", Dictionary.newFrom([
                "path", PathName(~root_sample_dir ++ "samples/Impulse_Responses/30310__tim_verberne__impulse-responses/537633__tim_verberne__ir_st_church_03.wav").fullPath,
                "buffer", Buffer.read(s, PathName(~root_sample_dir ++ "samples/Impulse_Responses/30310__tim_verberne__impulse-responses/537633__tim_verberne__ir_st_church_03.wav").fullPath),
            ]),
            "room_04", Dictionary.newFrom([
                "path", PathName(~root_sample_dir ++ "samples/Impulse_Responses/30310__tim_verberne__impulse-responses/537635__tim_verberne__ir_st_room_04.wav").fullPath,
                "buffer", Buffer.read(s, PathName(~root_sample_dir ++ "samples/Impulse_Responses/30310__tim_verberne__impulse-responses/537635__tim_verberne__ir_st_room_04.wav").fullPath),
            ]),
            "room_02", Dictionary.newFrom([
                "path", PathName(~root_sample_dir ++ "samples/Impulse_Responses/30310__tim_verberne__impulse-responses/537636__tim_verberne__ir_st_room_02.wav").fullPath,
                "buffer", Buffer.read(s, PathName(~root_sample_dir ++ "samples/Impulse_Responses/30310__tim_verberne__impulse-responses/537636__tim_verberne__ir_st_room_02.wav").fullPath),
            ]),
            "room_03", Dictionary.newFrom([
                "path", PathName(~root_sample_dir ++ "samples/Impulse_Responses/30310__tim_verberne__impulse-responses/537637__tim_verberne__ir_st_room_03.wav").fullPath,
                "buffer", Buffer.read(s, PathName(~root_sample_dir ++ "samples/Impulse_Responses/30310__tim_verberne__impulse-responses/537637__tim_verberne__ir_st_room_03.wav").fullPath),
            ]),
            "hallway_02", Dictionary.newFrom([
                "path", PathName(~root_sample_dir ++ "samples/Impulse_Responses/30310__tim_verberne__impulse-responses/537638__tim_verberne__ir_st_hallway_02.wav").fullPath,
                "buffer", Buffer.read(s, PathName(~root_sample_dir ++ "samples/Impulse_Responses/30310__tim_verberne__impulse-responses/537638__tim_verberne__ir_st_hallway_02.wav").fullPath),
            ]),
            "hallway_03", Dictionary.newFrom([
                "path", PathName(~root_sample_dir ++ "samples/Impulse_Responses/30310__tim_verberne__impulse-responses/537639__tim_verberne__ir_st_hallway_03.wav").fullPath,
                "buffer", Buffer.read(s, PathName(~root_sample_dir ++ "samples/Impulse_Responses/30310__tim_verberne__impulse-responses/537639__tim_verberne__ir_st_hallway_03.wav").fullPath),
            ]),
            "room_06", Dictionary.newFrom([
                "path", PathName(~root_sample_dir ++ "samples/Impulse_Responses/30310__tim_verberne__impulse-responses/537640__tim_verberne__ir_st_room_06.wav").fullPath,
                "buffer", Buffer.read(s, PathName(~root_sample_dir ++ "samples/Impulse_Responses/30310__tim_verberne__impulse-responses/537640__tim_verberne__ir_st_room_06.wav").fullPath),
            ]),
            "street_01", Dictionary.newFrom([
                "path", PathName(~root_sample_dir ++ "samples/Impulse_Responses/30310__tim_verberne__impulse-responses/537641__tim_verberne__ir_st_street_01.wav").fullPath,
                "buffer", Buffer.read(s, PathName(~root_sample_dir ++ "samples/Impulse_Responses/30310__tim_verberne__impulse-responses/537641__tim_verberne__ir_st_street_01.wav").fullPath),
            ]),
            "street_02", Dictionary.newFrom([
                "path", PathName(~root_sample_dir ++ "samples/Impulse_Responses/30310__tim_verberne__impulse-responses/537642__tim_verberne__ir_st_street_02.wav").fullPath,
                "buffer", Buffer.read(s, PathName(~root_sample_dir ++ "samples/Impulse_Responses/30310__tim_verberne__impulse-responses/537642__tim_verberne__ir_st_street_02.wav").fullPath),
            ]),
            "street_03", Dictionary.newFrom([
                "path", PathName(~root_sample_dir ++ "samples/Impulse_Responses/30310__tim_verberne__impulse-responses/537643__tim_verberne__ir_st_street_03.wav").fullPath,
                "buffer", Buffer.read(s, PathName(~root_sample_dir ++ "samples/Impulse_Responses/30310__tim_verberne__impulse-responses/537643__tim_verberne__ir_st_street_03.wav").fullPath),
            ]),
            "hall_02", Dictionary.newFrom([
                "path", PathName(~root_sample_dir ++ "samples/Impulse_Responses/30310__tim_verberne__impulse-responses/537644__tim_verberne__ir_st_hall_02.wav").fullPath,
                "buffer", Buffer.read(s, PathName(~root_sample_dir ++ "samples/Impulse_Responses/30310__tim_verberne__impulse-responses/537644__tim_verberne__ir_st_hall_02.wav").fullPath),
            ]),
            "hall_03", Dictionary.newFrom([
                "path", PathName(~root_sample_dir ++ "samples/Impulse_Responses/30310__tim_verberne__impulse-responses/537645__tim_verberne__ir_st_hall_03.wav").fullPath,
                "buffer", Buffer.read(s, PathName(~root_sample_dir ++ "samples/Impulse_Responses/30310__tim_verberne__impulse-responses/537645__tim_verberne__ir_st_hall_03.wav").fullPath),
            ]),
            "forest_06", Dictionary.newFrom([
                "path", PathName(~root_sample_dir ++ "samples/Impulse_Responses/30310__tim_verberne__impulse-responses/537646__tim_verberne__ir_st_forest_06.wav").fullPath,
                "buffer", Buffer.read(s, PathName(~root_sample_dir ++ "samples/Impulse_Responses/30310__tim_verberne__impulse-responses/537646__tim_verberne__ir_st_forest_06.wav").fullPath),
            ]),
            "hall_01", Dictionary.newFrom([
                "path", PathName(~root_sample_dir ++ "samples/Impulse_Responses/30310__tim_verberne__impulse-responses/537647__tim_verberne__ir_st_hall_01.wav").fullPath,
                "buffer", Buffer.read(s, PathName(~root_sample_dir ++ "samples/Impulse_Responses/30310__tim_verberne__impulse-responses/537647__tim_verberne__ir_st_hall_01.wav").fullPath),
            ]),
            "hall_06", Dictionary.newFrom([
                "path", PathName(~root_sample_dir ++ "samples/Impulse_Responses/30310__tim_verberne__impulse-responses/537648__tim_verberne__ir_st_hall_06.wav").fullPath,
                "buffer", Buffer.read(s, PathName(~root_sample_dir ++ "samples/Impulse_Responses/30310__tim_verberne__impulse-responses/537648__tim_verberne__ir_st_hall_06.wav").fullPath),
            ]),
            "hallway_01", Dictionary.newFrom([
                "path", PathName(~root_sample_dir ++ "samples/Impulse_Responses/30310__tim_verberne__impulse-responses/537649__tim_verberne__ir_st_hallway_01.wav").fullPath,
                "buffer", Buffer.read(s, PathName(~root_sample_dir ++ "samples/Impulse_Responses/30310__tim_verberne__impulse-responses/537649__tim_verberne__ir_st_hallway_01.wav").fullPath),
            ]),
            "hall_04", Dictionary.newFrom([
                "path", PathName(~root_sample_dir ++ "samples/Impulse_Responses/30310__tim_verberne__impulse-responses/537650__tim_verberne__ir_st_hall_04.wav").fullPath,
                "buffer", Buffer.read(s, PathName(~root_sample_dir ++ "samples/Impulse_Responses/30310__tim_verberne__impulse-responses/537650__tim_verberne__ir_st_hall_04.wav").fullPath),
            ]),
            "hall_05", Dictionary.newFrom([
                "path", PathName(~root_sample_dir ++ "samples/Impulse_Responses/30310__tim_verberne__impulse-responses/537651__tim_verberne__ir_st_hall_05.wav").fullPath,
                "buffer", Buffer.read(s, PathName(~root_sample_dir ++ "samples/Impulse_Responses/30310__tim_verberne__impulse-responses/537651__tim_verberne__ir_st_hall_05.wav").fullPath),
            ]),
            "tunnel_03", Dictionary.newFrom([
                "path", PathName(~root_sample_dir ++ "samples/Impulse_Responses/30310__tim_verberne__impulse-responses/537652__tim_verberne__ir_st_tunnel_03.wav").fullPath,
                "buffer", Buffer.read(s, PathName(~root_sample_dir ++ "samples/Impulse_Responses/30310__tim_verberne__impulse-responses/537652__tim_verberne__ir_st_tunnel_03.wav").fullPath),
            ]),
            "room_05", Dictionary.newFrom([
                "path", PathName(~root_sample_dir ++ "samples/Impulse_Responses/30310__tim_verberne__impulse-responses/537653__tim_verberne__ir_st_room_05.wav").fullPath,
                "buffer", Buffer.read(s, PathName(~root_sample_dir ++ "samples/Impulse_Responses/30310__tim_verberne__impulse-responses/537653__tim_verberne__ir_st_room_05.wav").fullPath),
            ]),
            "tunnel_01", Dictionary.newFrom([
                "path", PathName(~root_sample_dir ++ "samples/Impulse_Responses/30310__tim_verberne__impulse-responses/537654__tim_verberne__ir_st_tunnel_01.wav").fullPath,
                "buffer", Buffer.read(s, PathName(~root_sample_dir ++ "samples/Impulse_Responses/30310__tim_verberne__impulse-responses/537654__tim_verberne__ir_st_tunnel_01.wav").fullPath),
            ]),
            "dungeon_02", Dictionary.newFrom([
                "path", PathName(~root_sample_dir ++ "samples/Impulse_Responses/30310__tim_verberne__impulse-responses/537655__tim_verberne__ir_st_dungeon_02.wav").fullPath,
                "buffer", Buffer.read(s, PathName(~root_sample_dir ++ "samples/Impulse_Responses/30310__tim_verberne__impulse-responses/537655__tim_verberne__ir_st_dungeon_02.wav").fullPath),
            ]),
            "dungeon_01", Dictionary.newFrom([
                "path", PathName(~root_sample_dir ++ "samples/Impulse_Responses/30310__tim_verberne__impulse-responses/537656__tim_verberne__ir_st_dungeon_01.wav").fullPath,
                "buffer", Buffer.read(s, PathName(~root_sample_dir ++ "samples/Impulse_Responses/30310__tim_verberne__impulse-responses/537656__tim_verberne__ir_st_dungeon_01.wav").fullPath),
            ]),
            "courtyard_03", Dictionary.newFrom([
                "path", PathName(~root_sample_dir ++ "samples/Impulse_Responses/30310__tim_verberne__impulse-responses/537657__tim_verberne__ir_st_courtyard_03.wav").fullPath,
                "buffer", Buffer.read(s, PathName(~root_sample_dir ++ "samples/Impulse_Responses/30310__tim_verberne__impulse-responses/537657__tim_verberne__ir_st_courtyard_03.wav").fullPath),
            ]),
            "courtyard_02", Dictionary.newFrom([
                "path", PathName(~root_sample_dir ++ "samples/Impulse_Responses/30310__tim_verberne__impulse-responses/537658__tim_verberne__ir_st_courtyard_02.wav").fullPath,
                "buffer", Buffer.read(s, PathName(~root_sample_dir ++ "samples/Impulse_Responses/30310__tim_verberne__impulse-responses/537658__tim_verberne__ir_st_courtyard_02.wav").fullPath),
            ]),
            "forest_03", Dictionary.newFrom([
                "path", PathName(~root_sample_dir ++ "samples/Impulse_Responses/30310__tim_verberne__impulse-responses/537659__tim_verberne__ir_st_forest_03.wav").fullPath,
                "buffer", Buffer.read(s, PathName(~root_sample_dir ++ "samples/Impulse_Responses/30310__tim_verberne__impulse-responses/537659__tim_verberne__ir_st_forest_03.wav").fullPath),
            ]),
            "forest_02", Dictionary.newFrom([
                "path", PathName(~root_sample_dir ++ "samples/Impulse_Responses/30310__tim_verberne__impulse-responses/537660__tim_verberne__ir_st_forest_02.wav").fullPath,
                "buffer", Buffer.read(s, PathName(~root_sample_dir ++ "samples/Impulse_Responses/30310__tim_verberne__impulse-responses/537660__tim_verberne__ir_st_forest_02.wav").fullPath),
            ]),
            "forest_01", Dictionary.newFrom([
                "path", PathName(~root_sample_dir ++ "samples/Impulse_Responses/30310__tim_verberne__impulse-responses/537661__tim_verberne__ir_st_forest_01.wav").fullPath,
                "buffer", Buffer.read(s, PathName(~root_sample_dir ++ "samples/Impulse_Responses/30310__tim_verberne__impulse-responses/537661__tim_verberne__ir_st_forest_01.wav").fullPath),
            ]),
            "dungeon_03", Dictionary.newFrom([
                "path", PathName(~root_sample_dir ++ "samples/Impulse_Responses/30310__tim_verberne__impulse-responses/537662__tim_verberne__ir_st_dungeon_03.wav").fullPath,
                "buffer", Buffer.read(s, PathName(~root_sample_dir ++ "samples/Impulse_Responses/30310__tim_verberne__impulse-responses/537662__tim_verberne__ir_st_dungeon_03.wav").fullPath),
            ]),
            "forest_05", Dictionary.newFrom([
                "path", PathName(~root_sample_dir ++ "samples/Impulse_Responses/30310__tim_verberne__impulse-responses/537663__tim_verberne__ir_st_forest_05.wav").fullPath,
                "buffer", Buffer.read(s, PathName(~root_sample_dir ++ "samples/Impulse_Responses/30310__tim_verberne__impulse-responses/537663__tim_verberne__ir_st_forest_05.wav").fullPath),
            ]),
            "forest_04", Dictionary.newFrom([
                "path", PathName(~root_sample_dir ++ "samples/Impulse_Responses/30310__tim_verberne__impulse-responses/537664__tim_verberne__ir_st_forest_04.wav").fullPath,
                "buffer", Buffer.read(s, PathName(~root_sample_dir ++ "samples/Impulse_Responses/30310__tim_verberne__impulse-responses/537664__tim_verberne__ir_st_forest_04.wav").fullPath),
            ]),
            "mountain_range_02", Dictionary.newFrom([
                "path", PathName(~root_sample_dir ++ "samples/Impulse_Responses/30310__tim_verberne__impulse-responses/537665__tim_verberne__ir_st_mountain_range_02.wav").fullPath,
                "buffer", Buffer.read(s, PathName(~root_sample_dir ++ "samples/Impulse_Responses/30310__tim_verberne__impulse-responses/537665__tim_verberne__ir_st_mountain_range_02.wav").fullPath),
            ]),
            "ravine_03", Dictionary.newFrom([
                "path", PathName(~root_sample_dir ++ "samples/Impulse_Responses/30310__tim_verberne__impulse-responses/537666__tim_verberne__ir_st_ravine_03.wav").fullPath,
                "buffer", Buffer.read(s, PathName(~root_sample_dir ++ "samples/Impulse_Responses/30310__tim_verberne__impulse-responses/537666__tim_verberne__ir_st_ravine_03.wav").fullPath),
            ]),
            "mountain_range_01", Dictionary.newFrom([
                "path", PathName(~root_sample_dir ++ "samples/Impulse_Responses/30310__tim_verberne__impulse-responses/537667__tim_verberne__ir_st_mountain_range_01.wav").fullPath,
                "buffer", Buffer.read(s, PathName(~root_sample_dir ++ "samples/Impulse_Responses/30310__tim_verberne__impulse-responses/537667__tim_verberne__ir_st_mountain_range_01.wav").fullPath),
            ]),
            "ravine_01", Dictionary.newFrom([
                "path", PathName(~root_sample_dir ++ "samples/Impulse_Responses/30310__tim_verberne__impulse-responses/537668__tim_verberne__ir_st_ravine_01.wav").fullPath,
                "buffer", Buffer.read(s, PathName(~root_sample_dir ++ "samples/Impulse_Responses/30310__tim_verberne__impulse-responses/537668__tim_verberne__ir_st_ravine_01.wav").fullPath),
            ]),
            "mountain_range_03", Dictionary.newFrom([
                "path", PathName(~root_sample_dir ++ "samples/Impulse_Responses/30310__tim_verberne__impulse-responses/537669__tim_verberne__ir_st_mountain_range_03.wav").fullPath,
                "buffer", Buffer.read(s, PathName(~root_sample_dir ++ "samples/Impulse_Responses/30310__tim_verberne__impulse-responses/537669__tim_verberne__ir_st_mountain_range_03.wav").fullPath),
            ]),
            "ravine_02", Dictionary.newFrom([
                "path", PathName(~root_sample_dir ++ "samples/Impulse_Responses/30310__tim_verberne__impulse-responses/537670__tim_verberne__ir_st_ravine_02.wav").fullPath,
                "buffer", Buffer.read(s, PathName(~root_sample_dir ++ "samples/Impulse_Responses/30310__tim_verberne__impulse-responses/537670__tim_verberne__ir_st_ravine_02.wav").fullPath),
            ]),
            "parking_garage_02", Dictionary.newFrom([
                "path", PathName(~root_sample_dir ++ "samples/Impulse_Responses/30310__tim_verberne__impulse-responses/537671__tim_verberne__ir_st_parking_garage_02.wav").fullPath,
                "buffer", Buffer.read(s, PathName(~root_sample_dir ++ "samples/Impulse_Responses/30310__tim_verberne__impulse-responses/537671__tim_verberne__ir_st_parking_garage_02.wav").fullPath),
            ]),
            "parking_garage_03", Dictionary.newFrom([
                "path", PathName(~root_sample_dir ++ "samples/Impulse_Responses/30310__tim_verberne__impulse-responses/537672__tim_verberne__ir_st_parking_garage_03.wav").fullPath,
                "buffer", Buffer.read(s, PathName(~root_sample_dir ++ "samples/Impulse_Responses/30310__tim_verberne__impulse-responses/537672__tim_verberne__ir_st_parking_garage_03.wav").fullPath),
            ]),
            "tunnel_02", Dictionary.newFrom([
                "path", PathName(~root_sample_dir ++ "samples/Impulse_Responses/30310__tim_verberne__impulse-responses/537673__tim_verberne__ir_st_tunnel_02.wav").fullPath,
                "buffer", Buffer.read(s, PathName(~root_sample_dir ++ "samples/Impulse_Responses/30310__tim_verberne__impulse-responses/537673__tim_verberne__ir_st_tunnel_02.wav").fullPath),
            ]),
            "room_01", Dictionary.newFrom([
                "path", PathName(~root_sample_dir ++ "samples/Impulse_Responses/30310__tim_verberne__impulse-responses/537674__tim_verberne__ir_st_room_01.wav").fullPath,
                "buffer", Buffer.read(s, PathName(~root_sample_dir ++ "samples/Impulse_Responses/30310__tim_verberne__impulse-responses/537674__tim_verberne__ir_st_room_01.wav").fullPath),
            ]),
            "parking_garage_01", Dictionary.newFrom([
                "path", PathName(~root_sample_dir ++ "samples/Impulse_Responses/30310__tim_verberne__impulse-responses/537675__tim_verberne__ir_st_parking_garage_01.wav").fullPath,
                "buffer", Buffer.read(s, PathName(~root_sample_dir ++ "samples/Impulse_Responses/30310__tim_verberne__impulse-responses/537675__tim_verberne__ir_st_parking_garage_01.wav").fullPath),
            ])
        ]),
        "uberproduktion", Dictionary.newFrom([
            "snow", Dictionary.newFrom([
                "path", PathName(~root_sample_dir ++ "samples/Impulse_Responses/31277__uberproduktion__impulse-responses-elemente/556858__uberproduktion__impulse-response-elemente-snow.wav").fullPath,
                "buffer", Buffer.read(s, PathName(~root_sample_dir ++ "samples/Impulse_Responses/31277__uberproduktion__impulse-responses-elemente/556858__uberproduktion__impulse-response-elemente-snow.wav").fullPath),
            ]),
            "metal", Dictionary.newFrom([
                "path", PathName(~root_sample_dir ++ "samples/Impulse_Responses/31277__uberproduktion__impulse-responses-elemente/556859__uberproduktion__impulse-response-elemente-metal.wav").fullPath,
                "buffer", Buffer.read(s, PathName(~root_sample_dir ++ "samples/Impulse_Responses/31277__uberproduktion__impulse-responses-elemente/556859__uberproduktion__impulse-response-elemente-metal.wav").fullPath),
            ]),
            "ice", Dictionary.newFrom([
                "path", PathName(~root_sample_dir ++ "samples/Impulse_Responses/31277__uberproduktion__impulse-responses-elemente/556860__uberproduktion__impulse-response-elemente-ice.wav").fullPath,
                "buffer", Buffer.read(s, PathName(~root_sample_dir ++ "samples/Impulse_Responses/31277__uberproduktion__impulse-responses-elemente/556860__uberproduktion__impulse-response-elemente-ice.wav").fullPath),
            ]),
            "fire", Dictionary.newFrom([
                "path", PathName(~root_sample_dir ++ "samples/Impulse_Responses/31277__uberproduktion__impulse-responses-elemente/556861__uberproduktion__impulse-response-elemente-fire.wav").fullPath,
                "buffer", Buffer.read(s, PathName(~root_sample_dir ++ "samples/Impulse_Responses/31277__uberproduktion__impulse-responses-elemente/556861__uberproduktion__impulse-response-elemente-fire.wav").fullPath),
            ]),
            "wind", Dictionary.newFrom([
                "path", PathName(~root_sample_dir ++ "samples/Impulse_Responses/31277__uberproduktion__impulse-responses-elemente/556862__uberproduktion__impulse-response-elemente-wind.wav").fullPath,
                "buffer", Buffer.read(s, PathName(~root_sample_dir ++ "samples/Impulse_Responses/31277__uberproduktion__impulse-responses-elemente/556862__uberproduktion__impulse-response-elemente-wind.wav").fullPath),
            ]),
            "water", Dictionary.newFrom([
                "path", PathName(~root_sample_dir ++ "samples/Impulse_Responses/31277__uberproduktion__impulse-responses-elemente/556863__uberproduktion__impulse-response-elemente-water.wav").fullPath,
                "buffer", Buffer.read(s, PathName(~root_sample_dir ++ "samples/Impulse_Responses/31277__uberproduktion__impulse-responses-elemente/556863__uberproduktion__impulse-response-elemente-water.wav").fullPath),
            ])
        ]),
        "nox_sound", Dictionary.newFrom([
            "forest_5m", Dictionary.newFrom([
                "path", PathName(~root_sample_dir ++ "samples/Impulse_Responses/31372__nox_sound__ir-impulse-response/558822__nox_sound__ir_forest_5m_stereo.wav").fullPath,
                "buffer", Buffer.read(s, PathName(~root_sample_dir ++ "samples/Impulse_Responses/31372__nox_sound__ir-impulse-response/558822__nox_sound__ir_forest_5m_stereo.wav").fullPath),
            ]),
            "forest_20m", Dictionary.newFrom([
                "path", PathName(~root_sample_dir ++ "samples/Impulse_Responses/31372__nox_sound__ir-impulse-response/558823__nox_sound__ir_forest_20m_stereo.wav").fullPath,
                "buffer", Buffer.read(s, PathName(~root_sample_dir ++ "samples/Impulse_Responses/31372__nox_sound__ir-impulse-response/558823__nox_sound__ir_forest_20m_stereo.wav").fullPath),
            ]),
            "forest_10m", Dictionary.newFrom([
                "path", PathName(~root_sample_dir ++ "samples/Impulse_Responses/31372__nox_sound__ir-impulse-response/558824__nox_sound__ir_forest_10m_stereo.wav").fullPath,
                "buffer", Buffer.read(s, PathName(~root_sample_dir ++ "samples/Impulse_Responses/31372__nox_sound__ir-impulse-response/558824__nox_sound__ir_forest_10m_stereo.wav").fullPath),
            ]),
            "garage_stairs", Dictionary.newFrom([
                "path", PathName(~root_sample_dir ++ "samples/Impulse_Responses/31372__nox_sound__ir-impulse-response/585738__nox_sound__ir_garage_stairs_stereo.wav").fullPath,
                "buffer", Buffer.read(s, PathName(~root_sample_dir ++ "samples/Impulse_Responses/31372__nox_sound__ir-impulse-response/585738__nox_sound__ir_garage_stairs_stereo.wav").fullPath),
            ]),
            "church", Dictionary.newFrom([
                "path", PathName(~root_sample_dir ++ "samples/Impulse_Responses/31372__nox_sound__ir-impulse-response/585739__nox_sound__ir_church_small_5m_stereo.wav").fullPath,
                "buffer", Buffer.read(s, PathName(~root_sample_dir ++ "samples/Impulse_Responses/31372__nox_sound__ir-impulse-response/585739__nox_sound__ir_church_small_5m_stereo.wav").fullPath),
            ]),
            "chamber", Dictionary.newFrom([
                "path", PathName(~root_sample_dir ++ "samples/Impulse_Responses/31372__nox_sound__ir-impulse-response/585740__nox_sound__ir_chamber_stereo.wav").fullPath,
                "buffer", Buffer.read(s, PathName(~root_sample_dir ++ "samples/Impulse_Responses/31372__nox_sound__ir-impulse-response/585740__nox_sound__ir_chamber_stereo.wav").fullPath),
            ]),
            "bathroom", Dictionary.newFrom([
                "path", PathName(~root_sample_dir ++ "samples/Impulse_Responses/31372__nox_sound__ir-impulse-response/585741__nox_sound__ir_bathroom_stereo.wav").fullPath,
                "buffer", Buffer.read(s, PathName(~root_sample_dir ++ "samples/Impulse_Responses/31372__nox_sound__ir-impulse-response/585741__nox_sound__ir_bathroom_stereo.wav").fullPath),
            ]),
            "toilet", Dictionary.newFrom([
                "path", PathName(~root_sample_dir ++ "samples/Impulse_Responses/31372__nox_sound__ir-impulse-response/585742__nox_sound__ir_toilet_stereo.wav").fullPath,
                "buffer", Buffer.read(s, PathName(~root_sample_dir ++ "samples/Impulse_Responses/31372__nox_sound__ir-impulse-response/585742__nox_sound__ir_toilet_stereo.wav").fullPath),
            ]),
            "livingroom", Dictionary.newFrom([
                "path", PathName(~root_sample_dir ++ "samples/Impulse_Responses/31372__nox_sound__ir-impulse-response/585743__nox_sound__ir_livingroom_5m_stereo.wav").fullPath,
                "buffer", Buffer.read(s, PathName(~root_sample_dir ++ "samples/Impulse_Responses/31372__nox_sound__ir-impulse-response/585743__nox_sound__ir_livingroom_5m_stereo.wav").fullPath),
            ]),
            "cathedral", Dictionary.newFrom([
                "path", PathName(~root_sample_dir ++ "samples/Impulse_Responses/31372__nox_sound__ir-impulse-response/648945__nox_sound__ir_cathedral_5m_stereo.wav").fullPath,
                "buffer", Buffer.read(s, PathName(~root_sample_dir ++ "samples/Impulse_Responses/31372__nox_sound__ir-impulse-response/648945__nox_sound__ir_cathedral_5m_stereo.wav").fullPath),
            ]),
        ]),
        "sc", Dictionary.newFrom([
			"brownnoise_slow_0-5", Dictionary.newFrom([
                "path", PathName(~root_sample_dir ++ "samples/Impulse_Responses/sc/slow_vibrato/noise_0-5.wav").fullPath,
                "buffer", Buffer.read(s, PathName(~root_sample_dir ++ "samples/Impulse_Responses/sc/slow_vibrato/noise_0-5.wav").fullPath),
            ]),
			"brownnoise_slow_1", Dictionary.newFrom([
                "path", PathName(~root_sample_dir ++ "samples/Impulse_Responses/sc/slow_vibrato/noise_1.wav").fullPath,
                "buffer", Buffer.read(s, PathName(~root_sample_dir ++ "samples/Impulse_Responses/sc/slow_vibrato/noise_1.wav").fullPath),
            ]),
			"brownnoise_slow_1-5", Dictionary.newFrom([
                "path", PathName(~root_sample_dir ++ "samples/Impulse_Responses/sc/slow_vibrato/noise_1-5.wav").fullPath,
                "buffer", Buffer.read(s, PathName(~root_sample_dir ++ "samples/Impulse_Responses/sc/slow_vibrato/noise_1-5.wav").fullPath),
            ]),
			"brownnoise_slow_2", Dictionary.newFrom([
                "path", PathName(~root_sample_dir ++ "samples/Impulse_Responses/sc/slow_vibrato/noise_2.wav").fullPath,
                "buffer", Buffer.read(s, PathName(~root_sample_dir ++ "samples/Impulse_Responses/sc/slow_vibrato/noise_2.wav").fullPath),
            ]),
			"brownnoise_slow_2-5", Dictionary.newFrom([
                "path", PathName(~root_sample_dir ++ "samples/Impulse_Responses/sc/slow_vibrato/noise_2-5.wav").fullPath,
                "buffer", Buffer.read(s, PathName(~root_sample_dir ++ "samples/Impulse_Responses/sc/slow_vibrato/noise_2-5.wav").fullPath),
            ]),
			"brownnoise_slow_3", Dictionary.newFrom([
                "path", PathName(~root_sample_dir ++ "samples/Impulse_Responses/sc/slow_vibrato/noise_3.wav").fullPath,
                "buffer", Buffer.read(s, PathName(~root_sample_dir ++ "samples/Impulse_Responses/sc/slow_vibrato/noise_3.wav").fullPath),
            ]),
			"brownnoise_slow_3-5", Dictionary.newFrom([
                "path", PathName(~root_sample_dir ++ "samples/Impulse_Responses/sc/slow_vibrato/noise_3-5.wav").fullPath,
                "buffer", Buffer.read(s, PathName(~root_sample_dir ++ "samples/Impulse_Responses/sc/slow_vibrato/noise_3-5.wav").fullPath),
            ]),
			"brownnoise_slow_4", Dictionary.newFrom([
                "path", PathName(~root_sample_dir ++ "samples/Impulse_Responses/sc/slow_vibrato/noise_4.wav").fullPath,
                "buffer", Buffer.read(s, PathName(~root_sample_dir ++ "samples/Impulse_Responses/sc/slow_vibrato/noise_4.wav").fullPath),
            ]),
			"brownnoise_slow_4-5", Dictionary.newFrom([
                "path", PathName(~root_sample_dir ++ "samples/Impulse_Responses/sc/slow_vibrato/noise_4-5.wav").fullPath,
                "buffer", Buffer.read(s, PathName(~root_sample_dir ++ "samples/Impulse_Responses/sc/slow_vibrato/noise_4-5.wav").fullPath),
            ]),
			"brownnoise_slow_5", Dictionary.newFrom([
                "path", PathName(~root_sample_dir ++ "samples/Impulse_Responses/sc/slow_vibrato/noise_5.wav").fullPath,
                "buffer", Buffer.read(s, PathName(~root_sample_dir ++ "samples/Impulse_Responses/sc/slow_vibrato/noise_5.wav").fullPath),
            ]),
			"brownnoise_slow_5-5", Dictionary.newFrom([
                "path", PathName(~root_sample_dir ++ "samples/Impulse_Responses/sc/slow_vibrato/noise_5-5.wav").fullPath,
                "buffer", Buffer.read(s, PathName(~root_sample_dir ++ "samples/Impulse_Responses/sc/slow_vibrato/noise_5-5.wav").fullPath),
            ]),
			"brownnoise_slow_6", Dictionary.newFrom([
                "path", PathName(~root_sample_dir ++ "samples/Impulse_Responses/sc/slow_vibrato/noise_6.wav").fullPath,
                "buffer", Buffer.read(s, PathName(~root_sample_dir ++ "samples/Impulse_Responses/sc/slow_vibrato/noise_6.wav").fullPath),
            ]),
			"brownnoise_medium_0-5", Dictionary.newFrom([
                "path", PathName(~root_sample_dir ++ "samples/Impulse_Responses/sc/medium_vibrato/noise_0-5.wav").fullPath,
                "buffer", Buffer.read(s, PathName(~root_sample_dir ++ "samples/Impulse_Responses/sc/medium_vibrato/noise_0-5.wav").fullPath),
            ]),
			"brownnoise_medium_1", Dictionary.newFrom([
                "path", PathName(~root_sample_dir ++ "samples/Impulse_Responses/sc/medium_vibrato/noise_1.wav").fullPath,
                "buffer", Buffer.read(s, PathName(~root_sample_dir ++ "samples/Impulse_Responses/sc/medium_vibrato/noise_1.wav").fullPath),
            ]),
			"brownnoise_medium_1-5", Dictionary.newFrom([
                "path", PathName(~root_sample_dir ++ "samples/Impulse_Responses/sc/medium_vibrato/noise_1-5.wav").fullPath,
                "buffer", Buffer.read(s, PathName(~root_sample_dir ++ "samples/Impulse_Responses/sc/medium_vibrato/noise_1-5.wav").fullPath),
            ]),
			"brownnoise_medium_2", Dictionary.newFrom([
                "path", PathName(~root_sample_dir ++ "samples/Impulse_Responses/sc/medium_vibrato/noise_2.wav").fullPath,
                "buffer", Buffer.read(s, PathName(~root_sample_dir ++ "samples/Impulse_Responses/sc/medium_vibrato/noise_2.wav").fullPath),
            ]),
			"brownnoise_medium_2-5", Dictionary.newFrom([
                "path", PathName(~root_sample_dir ++ "samples/Impulse_Responses/sc/medium_vibrato/noise_2-5.wav").fullPath,
                "buffer", Buffer.read(s, PathName(~root_sample_dir ++ "samples/Impulse_Responses/sc/medium_vibrato/noise_2-5.wav").fullPath),
            ]),
			"brownnoise_medium_3", Dictionary.newFrom([
                "path", PathName(~root_sample_dir ++ "samples/Impulse_Responses/sc/medium_vibrato/noise_3.wav").fullPath,
                "buffer", Buffer.read(s, PathName(~root_sample_dir ++ "samples/Impulse_Responses/sc/medium_vibrato/noise_3.wav").fullPath),
            ]),
			"brownnoise_medium_3-5", Dictionary.newFrom([
                "path", PathName(~root_sample_dir ++ "samples/Impulse_Responses/sc/medium_vibrato/noise_3-5.wav").fullPath,
                "buffer", Buffer.read(s, PathName(~root_sample_dir ++ "samples/Impulse_Responses/sc/medium_vibrato/noise_3-5.wav").fullPath),
            ]),
			"brownnoise_medium_4", Dictionary.newFrom([
                "path", PathName(~root_sample_dir ++ "samples/Impulse_Responses/sc/medium_vibrato/noise_4.wav").fullPath,
                "buffer", Buffer.read(s, PathName(~root_sample_dir ++ "samples/Impulse_Responses/sc/medium_vibrato/noise_4.wav").fullPath),
            ]),
			"brownnoise_medium_4-5", Dictionary.newFrom([
                "path", PathName(~root_sample_dir ++ "samples/Impulse_Responses/sc/medium_vibrato/noise_4-5.wav").fullPath,
                "buffer", Buffer.read(s, PathName(~root_sample_dir ++ "samples/Impulse_Responses/sc/medium_vibrato/noise_4-5.wav").fullPath),
            ]),
			"brownnoise_medium_5", Dictionary.newFrom([
                "path", PathName(~root_sample_dir ++ "samples/Impulse_Responses/sc/medium_vibrato/noise_5.wav").fullPath,
                "buffer", Buffer.read(s, PathName(~root_sample_dir ++ "samples/Impulse_Responses/sc/medium_vibrato/noise_5.wav").fullPath),
            ]),
			"brownnoise_medium_5-5", Dictionary.newFrom([
                "path", PathName(~root_sample_dir ++ "samples/Impulse_Responses/sc/medium_vibrato/noise_5-5.wav").fullPath,
                "buffer", Buffer.read(s, PathName(~root_sample_dir ++ "samples/Impulse_Responses/sc/medium_vibrato/noise_5-5.wav").fullPath),
            ]),
			"brownnoise_medium_6", Dictionary.newFrom([
                "path", PathName(~root_sample_dir ++ "samples/Impulse_Responses/sc/medium_vibrato/noise_6.wav").fullPath,
                "buffer", Buffer.read(s, PathName(~root_sample_dir ++ "samples/Impulse_Responses/sc/medium_vibrato/noise_6.wav").fullPath),
            ]),
		])
    ])
]);